(Projekt untersetzer-fib-240mm)
(Erstellt mit Estlcam 12,102)
(Laufzeit ca. 00:09:16 Stunden)

(Benoetigte Werkzeuge:)
(3,175)

G21
G90
G94
M03 S24000
G00 Z5.0000

(Nr. 1 Ausschnitt bearbeiten: Ausschnitt 287)
G00 X46.3444 Y45.8672 Z5.0000
G00 Z0.5000
G01 Z0.0000 F1800 S24000
G01 X46.2565 Y45.9694 Z-0.0491
G01 X46.1747 Y46.0766 Z-0.0981
G01 X46.0993 Y46.1883 Z-0.1472
G01 X46.0305 Y46.3042 Z-0.1963
G01 X45.9686 Y46.4240 Z-0.2454
G01 X45.9137 Y46.5471 Z-0.2944
G01 X45.8661 Y46.6732 Z-0.3435
G01 X45.8259 Y46.8019 Z-0.3926
G01 X45.7932 Y46.9327 Z-0.4417
G01 X45.7682 Y47.0651 Z-0.4907
G01 X45.7510 Y47.1988 Z-0.5398
G01 X45.7415 Y47.3333 Z-0.5889
G01 X45.7399 Y47.4681 Z-0.6379
G01 X45.7461 Y47.6028 Z-0.6870
G01 X45.7602 Y47.7368 Z-0.7361
G01 X45.7820 Y47.8699 Z-0.7852
G01 X45.8115 Y48.0014 Z-0.8342
G01 X45.8486 Y48.1310 Z-0.8833
G01 X45.8932 Y48.2582 Z-0.9324
G01 X45.9451 Y48.3826 Z-0.9814
G01 X46.0042 Y48.5038 Z-1.0305
G01 X46.0702 Y48.6214 Z-1.0796
G01 X46.1429 Y48.7349 Z-1.1287
G01 X46.2221 Y48.8440 Z-1.1777
G01 X46.3075 Y48.9482 Z-1.2268
G01 X46.3988 Y49.0474 Z-1.2759
G01 X46.4958 Y49.1411 Z-1.3250
G01 X46.5980 Y49.2290 Z-1.3740
G01 X46.7052 Y49.3108 Z-1.4231
G01 X46.8169 Y49.3862 Z-1.4722
G01 X46.9328 Y49.4550 Z-1.5212
G01 X47.0526 Y49.5169 Z-1.5703
G01 X47.1757 Y49.5718 Z-1.6194
G01 X47.3018 Y49.6194 Z-1.6685
G01 X47.4305 Y49.6596 Z-1.7175
G01 X47.5613 Y49.6923 Z-1.7666
G01 X47.6937 Y49.7173 Z-1.8157
G01 X47.8274 Y49.7345 Z-1.8647
G01 X47.9619 Y49.7440 Z-1.9138
G01 X48.0967 Y49.7456 Z-1.9629
G01 X48.2314 Y49.7393 Z-2.0120
G01 X48.3654 Y49.7253 Z-2.0610
G01 X48.4985 Y49.7035 Z-2.1101
G01 X48.6300 Y49.6740 Z-2.1592
G01 X48.7596 Y49.6368 Z-2.2083
G01 X48.8868 Y49.5923 Z-2.2573
G01 X49.0112 Y49.5403 Z-2.3064
G01 X49.1324 Y49.4813 Z-2.3555
G01 X49.2500 Y49.4153 Z-2.4045
G01 X49.3635 Y49.3426 Z-2.4536
G01 X49.4725 Y49.2634 Z-2.5027
G01 X49.5768 Y49.1780 Z-2.5518
G01 X49.6760 Y49.0866 Z-2.6008
G01 X49.7697 Y48.9897 Z-2.6499
G01 X49.8576 Y48.8875 Z-2.6990
G01 X49.9393 Y48.7803 Z-2.7480
G01 X50.0148 Y48.6686 Z-2.7971
G01 X50.0836 Y48.5526 Z-2.8462
G01 X50.1455 Y48.4329 Z-2.8953
G01 X50.2004 Y48.3098 Z-2.9443
G01 X50.2480 Y48.1837 Z-2.9934
G01 X50.2882 Y48.0550 Z-3.0425
G01 X50.3209 Y47.9242 Z-3.0916
G01 X50.3458 Y47.7917 Z-3.1406
G01 X50.3631 Y47.6580 Z-3.1897
G01 X50.3725 Y47.5236 Z-3.2388
G01 X50.3742 Y47.3888 Z-3.2878
G01 X50.3679 Y47.2541 Z-3.3369
G01 X50.3539 Y47.1200 Z-3.3860
G01 X50.3321 Y46.9870 Z-3.4351
G01 X50.3026 Y46.8555 Z-3.4841
G01 X50.2654 Y46.7259 Z-3.5332
G01 X50.2176 Y46.5902 Z-3.5856
G01 X50.1614 Y46.4577 Z-3.6380
G01 X50.0971 Y46.3289 Z-3.6904
G01 X50.0249 Y46.2044 Z-3.7427
G01 X49.9451 Y46.0847 Z-3.7951
G01 X49.8581 Y45.9701 Z-3.8475
G01 X49.7641 Y45.8611 Z-3.8999
G01 X49.6635 Y45.7582 Z-3.9523
G01 X49.5568 Y45.6617 Z-4.0047
G01 X49.4442 Y45.5720 Z-4.0571
G01 X49.3263 Y45.4895 Z-4.1094
G01 X49.2035 Y45.4144 Z-4.1618
G01 X49.0763 Y45.3472 Z-4.2142
G01 X48.9452 Y45.2879 Z-4.2666
G01 X48.8106 Y45.2369 Z-4.3190
G01 X48.6732 Y45.1944 Z-4.3714
G01 X48.5333 Y45.1604 Z-4.4238
G01 X48.3916 Y45.1352 Z-4.4761
G01 X48.2487 Y45.1189 Z-4.5285
G01 X48.1049 Y45.1115 Z-4.5809
G01 X47.9610 Y45.1130 Z-4.6333
G01 X47.8175 Y45.1234 Z-4.6857
G01 X47.6749 Y45.1427 Z-4.7381
G01 X47.5338 Y45.1708 Z-4.7905
G01 X47.3947 Y45.2076 Z-4.8428
G01 X47.2581 Y45.2530 Z-4.8952
G01 X47.1246 Y45.3068 Z-4.9476
G01 X46.9948 Y45.3688 Z-5.0000
G01 X46.9043 Y45.4180 F3600
G01 X46.8162 Y45.4712
G01 X46.7305 Y45.5282
G01 X46.6474 Y45.5890
G01 X46.5671 Y45.6534
G01 X46.4897 Y45.7214
G01 X46.4154 Y45.7927
G01 X46.3444 Y45.8672
G01 X46.2565 Y45.9694 Z-5.0491 F1800
G01 X46.1747 Y46.0766 Z-5.0981
G01 X46.0993 Y46.1883 Z-5.1472
G01 X46.0305 Y46.3042 Z-5.1963
G01 X45.9686 Y46.4240 Z-5.2454
G01 X45.9137 Y46.5471 Z-5.2944
G01 X45.8661 Y46.6732 Z-5.3435
G01 X45.8259 Y46.8019 Z-5.3926
G01 X45.7932 Y46.9327 Z-5.4417
G01 X45.7682 Y47.0651 Z-5.4907
G01 X45.7510 Y47.1988 Z-5.5398
G01 X45.7415 Y47.3333 Z-5.5889
G01 X45.7399 Y47.4681 Z-5.6379
G01 X45.7461 Y47.6028 Z-5.6870
G01 X45.7602 Y47.7368 Z-5.7361
G01 X45.7820 Y47.8699 Z-5.7852
G01 X45.8115 Y48.0014 Z-5.8342
G01 X45.8486 Y48.1310 Z-5.8833
G01 X45.8932 Y48.2582 Z-5.9324
G01 X45.9451 Y48.3826 Z-5.9814
G01 X46.0042 Y48.5038 Z-6.0305
G01 X46.0702 Y48.6214 Z-6.0796
G01 X46.1429 Y48.7349 Z-6.1287
G01 X46.2221 Y48.8440 Z-6.1777
G01 X46.3075 Y48.9482 Z-6.2268
G01 X46.3988 Y49.0474 Z-6.2759
G01 X46.4958 Y49.1411 Z-6.3250
G01 X46.5980 Y49.2290 Z-6.3740
G01 X46.7052 Y49.3108 Z-6.4231
G01 X46.8169 Y49.3862 Z-6.4722
G01 X46.9328 Y49.4550 Z-6.5212
G01 X47.0526 Y49.5169 Z-6.5703
G01 X47.1757 Y49.5718 Z-6.6194
G01 X47.3018 Y49.6194 Z-6.6685
G01 X47.4305 Y49.6596 Z-6.7175
G01 X47.5613 Y49.6923 Z-6.7666
G01 X47.6937 Y49.7173 Z-6.8157
G01 X47.8274 Y49.7345 Z-6.8647
G01 X47.9619 Y49.7440 Z-6.9138
G01 X48.0967 Y49.7456 Z-6.9629
G01 X48.2314 Y49.7393 Z-7.0120
G01 X48.3654 Y49.7253 Z-7.0610
G01 X48.4985 Y49.7035 Z-7.1101
G01 X48.6300 Y49.6740 Z-7.1592
G01 X48.7596 Y49.6368 Z-7.2083
G01 X48.8868 Y49.5923 Z-7.2573
G01 X49.0112 Y49.5403 Z-7.3064
G01 X49.1324 Y49.4813 Z-7.3555
G01 X49.2500 Y49.4153 Z-7.4045
G01 X49.3635 Y49.3426 Z-7.4536
G01 X49.4725 Y49.2634 Z-7.5027
G01 X49.5768 Y49.1780 Z-7.5518
G01 X49.6760 Y49.0866 Z-7.6008
G01 X49.7697 Y48.9897 Z-7.6499
G01 X49.8576 Y48.8875 Z-7.6990
G01 X49.9393 Y48.7803 Z-7.7480
G01 X50.0148 Y48.6686 Z-7.7971
G01 X50.0836 Y48.5526 Z-7.8462
G01 X50.1455 Y48.4329 Z-7.8953
G01 X50.2004 Y48.3098 Z-7.9443
G01 X50.2480 Y48.1837 Z-7.9934
G01 X50.2882 Y48.0550 Z-8.0425
G01 X50.3209 Y47.9242 Z-8.0916
G01 X50.3458 Y47.7917 Z-8.1406
G01 X50.3631 Y47.6580 Z-8.1897
G01 X50.3725 Y47.5236 Z-8.2388
G01 X50.3742 Y47.3888 Z-8.2878
G01 X50.3679 Y47.2541 Z-8.3369
G01 X50.3539 Y47.1200 Z-8.3860
G01 X50.3321 Y46.9870 Z-8.4351
G01 X50.3026 Y46.8555 Z-8.4841
G01 X50.2654 Y46.7259 Z-8.5332
G01 X50.2176 Y46.5902 Z-8.5856
G01 X50.1614 Y46.4577 Z-8.6380
G01 X50.0971 Y46.3289 Z-8.6904
G01 X50.0249 Y46.2044 Z-8.7427
G01 X49.9451 Y46.0847 Z-8.7951
G01 X49.8581 Y45.9701 Z-8.8475
G01 X49.7641 Y45.8611 Z-8.8999
G01 X49.6635 Y45.7582 Z-8.9523
G01 X49.5568 Y45.6617 Z-9.0047
G01 X49.4442 Y45.5720 Z-9.0571
G01 X49.3263 Y45.4895 Z-9.1094
G01 X49.2035 Y45.4144 Z-9.1618
G01 X49.0763 Y45.3472 Z-9.2142
G01 X48.9452 Y45.2879 Z-9.2666
G01 X48.8106 Y45.2369 Z-9.3190
G01 X48.6732 Y45.1944 Z-9.3714
G01 X48.5333 Y45.1604 Z-9.4238
G01 X48.3916 Y45.1352 Z-9.4761
G01 X48.2487 Y45.1189 Z-9.5285
G01 X48.1049 Y45.1115 Z-9.5809
G01 X47.9610 Y45.1130 Z-9.6333
G01 X47.8175 Y45.1234 Z-9.6857
G01 X47.6749 Y45.1427 Z-9.7381
G01 X47.5338 Y45.1708 Z-9.7905
G01 X47.3947 Y45.2076 Z-9.8428
G01 X47.2581 Y45.2530 Z-9.8952
G01 X47.1246 Y45.3068 Z-9.9476
G01 X46.9948 Y45.3688 Z-10.0000
G01 X46.9043 Y45.4180 F3600
G01 X46.8162 Y45.4712
G01 X46.7305 Y45.5282
G01 X46.6474 Y45.5890
G01 X46.5671 Y45.6534
G01 X46.4897 Y45.7214
G01 X46.4154 Y45.7927
G01 X46.3444 Y45.8672
G01 X46.2565 Y45.9694 Z-10.0491 F1800
G01 X46.1747 Y46.0766 Z-10.0981
G01 X46.0993 Y46.1883 Z-10.1472
G01 X46.0305 Y46.3042 Z-10.1963
G01 X45.9686 Y46.4240 Z-10.2454
G01 X45.9137 Y46.5471 Z-10.2944
G01 X45.8661 Y46.6732 Z-10.3435
G01 X45.8259 Y46.8019 Z-10.3926
G01 X45.7932 Y46.9327 Z-10.4417
G01 X45.7682 Y47.0651 Z-10.4907
G01 X45.7510 Y47.1988 Z-10.5398
G01 X45.7415 Y47.3333 Z-10.5889
G01 X45.7399 Y47.4681 Z-10.6379
G01 X45.7461 Y47.6028 Z-10.6870
G01 X45.7602 Y47.7368 Z-10.7361
G01 X45.7820 Y47.8699 Z-10.7852
G01 X45.8115 Y48.0014 Z-10.8342
G01 X45.8486 Y48.1310 Z-10.8833
G01 X45.8932 Y48.2582 Z-10.9324
G01 X45.9451 Y48.3826 Z-10.9814
G01 X46.0042 Y48.5038 Z-11.0305
G01 X46.0702 Y48.6214 Z-11.0796
G01 X46.1429 Y48.7349 Z-11.1287
G01 X46.2221 Y48.8440 Z-11.1777
G01 X46.3075 Y48.9482 Z-11.2268
G01 X46.3988 Y49.0474 Z-11.2759
G01 X46.4958 Y49.1411 Z-11.3250
G01 X46.5980 Y49.2290 Z-11.3740
G01 X46.7052 Y49.3108 Z-11.4231
G01 X46.8169 Y49.3862 Z-11.4722
G01 X46.9328 Y49.4550 Z-11.5212
G01 X47.0526 Y49.5169 Z-11.5703
G01 X47.1757 Y49.5718 Z-11.6194
G01 X47.3018 Y49.6194 Z-11.6685
G01 X47.4305 Y49.6596 Z-11.7175
G01 X47.5613 Y49.6923 Z-11.7666
G01 X47.6937 Y49.7173 Z-11.8157
G01 X47.8274 Y49.7345 Z-11.8647
G01 X47.9619 Y49.7440 Z-11.9138
G01 X48.0967 Y49.7456 Z-11.9629
G01 X48.2314 Y49.7393 Z-12.0120
G01 X48.3654 Y49.7253 Z-12.0610
G01 X48.4985 Y49.7035 Z-12.1101
G01 X48.6300 Y49.6740 Z-12.1592
G01 X48.7596 Y49.6368 Z-12.2083
G01 X48.8868 Y49.5923 Z-12.2573
G01 X49.0112 Y49.5403 Z-12.3064
G01 X49.1324 Y49.4813 Z-12.3555
G01 X49.2500 Y49.4153 Z-12.4045
G01 X49.3635 Y49.3426 Z-12.4536
G01 X49.4725 Y49.2634 Z-12.5027
G01 X49.5768 Y49.1780 Z-12.5518
G01 X49.6760 Y49.0866 Z-12.6008
G01 X49.7697 Y48.9897 Z-12.6499
G01 X49.8576 Y48.8875 Z-12.6990
G01 X49.9393 Y48.7803 Z-12.7480
G01 X50.0148 Y48.6686 Z-12.7971
G01 X50.0836 Y48.5526 Z-12.8462
G01 X50.1455 Y48.4329 Z-12.8953
G01 X50.2004 Y48.3098 Z-12.9443
G01 X50.2480 Y48.1837 Z-12.9934
G01 X50.2882 Y48.0550 Z-13.0425
G01 X50.3209 Y47.9242 Z-13.0916
G01 X50.3458 Y47.7917 Z-13.1406
G01 X50.3631 Y47.6580 Z-13.1897
G01 X50.3725 Y47.5236 Z-13.2388
G01 X50.3742 Y47.3888 Z-13.2878
G01 X50.3679 Y47.2541 Z-13.3369
G01 X50.3539 Y47.1200 Z-13.3860
G01 X50.3321 Y46.9870 Z-13.4351
G01 X50.3026 Y46.8555 Z-13.4841
G01 X50.2654 Y46.7259 Z-13.5332
G01 X50.2307 Y46.6248 Z-13.5721
G01 X50.1913 Y46.5255 Z-13.6110
G01 X50.1474 Y46.4280 Z-13.6499
G01 X50.0991 Y46.3327 Z-13.6888
G01 X50.0464 Y46.2397 Z-13.7277
G01 X49.9895 Y46.1493 Z-13.7666
G01 X49.9285 Y46.0616 Z-13.8055
G01 X49.8635 Y45.9767 Z-13.8444
G01 X49.7946 Y45.8950 Z-13.8833
G01 X49.7221 Y45.8165 Z-13.9222
G01 X49.6460 Y45.7415 Z-13.9611
G01 X49.5666 Y45.6700 Z-14.0000
G01 X49.4675 Y45.5896 F3600
G01 X49.3643 Y45.5148
G01 X49.2570 Y45.4458
G01 X49.1461 Y45.3828
G01 X49.0320 Y45.3260
G01 X48.9148 Y45.2756
G01 X48.7951 Y45.2316
G01 X48.6732 Y45.1944
G01 X48.5493 Y45.1639
G01 X48.4240 Y45.1402
G01 X48.2976 Y45.1235
G01 X48.1704 Y45.1137
G01 X48.0429 Y45.1110
G01 X47.9155 Y45.1153
G01 X47.7885 Y45.1266
G01 X47.6623 Y45.1448
G01 X47.5372 Y45.1700
G01 X47.4138 Y45.2020
G01 X47.2923 Y45.2408
G01 X47.1731 Y45.2862
G01 X47.0566 Y45.3380
G01 X46.9431 Y45.3962
G01 X46.8330 Y45.4606
G01 X46.7266 Y45.5309
G01 X46.6243 Y45.6069
G01 X46.5263 Y45.6885
G01 X46.4329 Y45.7753
G01 X46.3444 Y45.8672
G01 X46.2565 Y45.9694
G01 X46.1747 Y46.0766
G01 X46.0993 Y46.1883
G01 X46.0305 Y46.3042
G01 X45.9686 Y46.4240
G01 X45.9137 Y46.5471
G01 X45.8661 Y46.6732
G01 X45.8259 Y46.8019
G01 X45.7932 Y46.9327
G01 X45.7682 Y47.0651
G01 X45.7510 Y47.1988
G01 X45.7415 Y47.3333
G01 X45.7399 Y47.4681
G01 X45.7461 Y47.6028
G01 X45.7602 Y47.7368
G01 X45.7820 Y47.8699
G01 X45.8115 Y48.0014
G01 X45.8486 Y48.1310
G01 X45.8932 Y48.2582
G01 X45.9451 Y48.3826
G01 X46.0042 Y48.5038
G01 X46.0702 Y48.6214
G01 X46.1429 Y48.7349
G01 X46.2221 Y48.8440
G01 X46.3075 Y48.9482
G01 X46.3988 Y49.0474
G01 X46.4958 Y49.1411
G01 X46.5980 Y49.2290
G01 X46.7052 Y49.3108
G01 X46.8169 Y49.3862
G01 X46.9328 Y49.4550
G01 X47.0526 Y49.5169
G01 X47.1757 Y49.5718
G01 X47.3018 Y49.6194
G01 X47.4305 Y49.6596
G01 X47.5613 Y49.6923
G01 X47.6937 Y49.7173
G01 X47.8274 Y49.7345
G01 X47.9619 Y49.7440
G01 X48.0967 Y49.7456
G01 X48.2314 Y49.7393
G01 X48.3654 Y49.7253
G01 X48.4985 Y49.7035
G01 X48.6300 Y49.6740
G01 X48.7596 Y49.6368
G01 X48.8868 Y49.5923
G01 X49.0112 Y49.5403
G01 X49.1324 Y49.4813
G01 X49.2500 Y49.4153
G01 X49.3635 Y49.3426
G01 X49.4725 Y49.2634
G01 X49.5768 Y49.1780
G01 X49.6760 Y49.0866
G01 X49.7697 Y48.9897
G01 X49.8576 Y48.8875
G01 X49.9393 Y48.7803
G01 X50.0148 Y48.6686
G01 X50.0836 Y48.5526
G01 X50.1455 Y48.4329
G01 X50.2004 Y48.3098
G01 X50.2480 Y48.1837
G01 X50.2882 Y48.0550
G01 X50.3209 Y47.9242
G01 X50.3458 Y47.7917
G01 X50.3631 Y47.6580
G01 X50.3725 Y47.5236
G01 X50.3742 Y47.3888
G01 X50.3679 Y47.2541
G01 X50.3539 Y47.1200
G01 X50.3321 Y46.9870
G01 X50.3026 Y46.8555
G01 X50.2654 Y46.7259
G01 X50.2307 Y46.6248
G01 X50.1913 Y46.5255
G01 X50.1474 Y46.4280
G01 X50.0991 Y46.3327
G01 X50.0464 Y46.2397
G01 X49.9895 Y46.1493
G01 X49.9285 Y46.0616
G01 X49.8635 Y45.9767
G01 X49.7946 Y45.8950
G01 X49.7221 Y45.8165
G01 X49.6460 Y45.7415
G01 X49.5666 Y45.6700
G00 Z5.0000

(Nr. 2 Ausschnitt bearbeiten: Ausschnitt 253)
G00 X56.1656 Y46.2254 Z5.0000
G00 Z0.5000
G01 Z0.0000 F1800
G01 X56.1567 Y46.3619 Z-0.0521
G01 Y46.4987 Z-0.1042
G01 X56.1656 Y46.6352 Z-0.1563
G01 X56.1835 Y46.7709 Z-0.2083
G01 X56.2102 Y46.9050 Z-0.2604
G01 X56.2456 Y47.0372 Z-0.3125
G01 X56.2896 Y47.1667 Z-0.3646
G01 X56.3419 Y47.2931 Z-0.4167
G01 X56.4024 Y47.4158 Z-0.4688
G01 X56.4708 Y47.5343 Z-0.5208
G01 X56.5468 Y47.6480 Z-0.5729
G01 X56.6301 Y47.7566 Z-0.6250
G01 X56.7203 Y47.8594 Z-0.6771
G01 X56.8170 Y47.9561 Z-0.7292
G01 X56.9199 Y48.0463 Z-0.7813
G01 X57.0284 Y48.1296 Z-0.8333
G01 X57.1422 Y48.2056 Z-0.8854
G01 X57.2607 Y48.2740 Z-0.9375
G01 X57.3833 Y48.3345 Z-0.9896
G01 X57.5097 Y48.3869 Z-1.0417
G01 X57.6393 Y48.4309 Z-1.0938
G01 X57.7714 Y48.4663 Z-1.1458
G01 X57.9056 Y48.4930 Z-1.1979
G01 X58.0412 Y48.5108 Z-1.2500
G01 X58.1777 Y48.5198 Z-1.3021
G01 X58.3146 Z-1.3542
G01 X58.4511 Y48.5108 Z-1.4063
G01 X58.5867 Y48.4930 Z-1.4583
G01 X58.7209 Y48.4663 Z-1.5104
G01 X58.8530 Y48.4309 Z-1.5625
G01 X58.9826 Y48.3869 Z-1.6146
G01 X59.1089 Y48.3345 Z-1.6667
G01 X59.2316 Y48.2740 Z-1.7188
G01 X59.3501 Y48.2056 Z-1.7708
G01 X59.4639 Y48.1296 Z-1.8229
G01 X59.5724 Y48.0463 Z-1.8750
G01 X59.6753 Y47.9561 Z-1.9271
G01 X59.7720 Y47.8594 Z-1.9792
G01 X59.8622 Y47.7566 Z-2.0313
G01 X59.9455 Y47.6480 Z-2.0833
G01 X60.0215 Y47.5343 Z-2.1354
G01 X60.0899 Y47.4158 Z-2.1875
G01 X60.1504 Y47.2931 Z-2.2396
G01 X60.2027 Y47.1667 Z-2.2917
G01 X60.2467 Y47.0372 Z-2.3438
G01 X60.2821 Y46.9050 Z-2.3958
G01 X60.3088 Y46.7708 Z-2.4479
G01 X60.3267 Y46.6352 Z-2.5000
G01 X60.3356 Y46.4987 Z-2.5521
G01 Y46.3619 Z-2.6042
G01 X60.3267 Y46.2254 Z-2.6563
G01 X60.3088 Y46.0897 Z-2.7083
G01 X60.2821 Y45.9556 Z-2.7604
G01 X60.2467 Y45.8234 Z-2.8125
G01 X60.2027 Y45.6939 Z-2.8646
G01 X60.1504 Y45.5675 Z-2.9167
G01 X60.0899 Y45.4448 Z-2.9688
G01 X60.0215 Y45.3263 Z-3.0208
G01 X59.9455 Y45.2126 Z-3.0729
G01 X59.8622 Y45.1040 Z-3.1250
G01 X59.7720 Y45.0012 Z-3.1771
G01 X59.6753 Y44.9045 Z-3.2292
G01 X59.5724 Y44.8143 Z-3.2813
G01 X59.4639 Y44.7310 Z-3.3333
G01 X59.3501 Y44.6550 Z-3.3854
G01 X59.2316 Y44.5866 Z-3.4375
G01 X59.1089 Y44.5261 Z-3.4896
G01 X58.9826 Y44.4737 Z-3.5417
G01 X58.8530 Y44.4297 Z-3.5938
G01 X58.7209 Y44.3943 Z-3.6458
G01 X58.5867 Y44.3676 Z-3.6979
G01 X58.4511 Y44.3498 Z-3.7500
G01 X58.3145 Y44.3408 Z-3.8021
G01 X58.1777 Z-3.8542
G01 X58.0412 Y44.3498 Z-3.9063
G01 X57.9056 Y44.3676 Z-3.9583
G01 X57.7714 Y44.3943 Z-4.0104
G01 X57.6393 Y44.4297 Z-4.0625
G01 X57.5097 Y44.4737 Z-4.1146
G01 X57.3833 Y44.5261 Z-4.1667
G01 X57.2606 Y44.5866 Z-4.2188
G01 X57.1422 Y44.6550 Z-4.2708
G01 X57.0284 Y44.7310 Z-4.3229
G01 X56.9199 Y44.8143 Z-4.3750
G01 X56.8170 Y44.9045 Z-4.4271
G01 X56.7203 Y45.0012 Z-4.4792
G01 X56.6301 Y45.1040 Z-4.5313
G01 X56.5468 Y45.2126 Z-4.5833
G01 X56.4708 Y45.3263 Z-4.6354
G01 X56.4024 Y45.4448 Z-4.6875
G01 X56.3419 Y45.5675 Z-4.7396
G01 X56.2896 Y45.6939 Z-4.7917
G01 X56.2456 Y45.8234 Z-4.8438
G01 X56.2102 Y45.9556 Z-4.8958
G01 X56.1835 Y46.0898 Z-4.9479
G01 X56.1656 Y46.2254 Z-5.0000
G01 X56.1567 Y46.3619 Z-5.0521
G01 Y46.4987 Z-5.1042
G01 X56.1656 Y46.6352 Z-5.1563
G01 X56.1835 Y46.7709 Z-5.2083
G01 X56.2102 Y46.9050 Z-5.2604
G01 X56.2456 Y47.0372 Z-5.3125
G01 X56.2896 Y47.1667 Z-5.3646
G01 X56.3419 Y47.2931 Z-5.4167
G01 X56.4024 Y47.4158 Z-5.4688
G01 X56.4708 Y47.5343 Z-5.5208
G01 X56.5468 Y47.6480 Z-5.5729
G01 X56.6301 Y47.7566 Z-5.6250
G01 X56.7203 Y47.8594 Z-5.6771
G01 X56.8170 Y47.9561 Z-5.7292
G01 X56.9199 Y48.0463 Z-5.7813
G01 X57.0284 Y48.1296 Z-5.8333
G01 X57.1422 Y48.2056 Z-5.8854
G01 X57.2607 Y48.2740 Z-5.9375
G01 X57.3833 Y48.3345 Z-5.9896
G01 X57.5097 Y48.3869 Z-6.0417
G01 X57.6393 Y48.4309 Z-6.0938
G01 X57.7714 Y48.4663 Z-6.1458
G01 X57.9056 Y48.4930 Z-6.1979
G01 X58.0412 Y48.5108 Z-6.2500
G01 X58.1777 Y48.5198 Z-6.3021
G01 X58.3146 Z-6.3542
G01 X58.4511 Y48.5108 Z-6.4063
G01 X58.5867 Y48.4930 Z-6.4583
G01 X58.7209 Y48.4663 Z-6.5104
G01 X58.8530 Y48.4309 Z-6.5625
G01 X58.9826 Y48.3869 Z-6.6146
G01 X59.1089 Y48.3345 Z-6.6667
G01 X59.2316 Y48.2740 Z-6.7188
G01 X59.3501 Y48.2056 Z-6.7708
G01 X59.4639 Y48.1296 Z-6.8229
G01 X59.5724 Y48.0463 Z-6.8750
G01 X59.6753 Y47.9561 Z-6.9271
G01 X59.7720 Y47.8594 Z-6.9792
G01 X59.8622 Y47.7566 Z-7.0313
G01 X59.9455 Y47.6480 Z-7.0833
G01 X60.0215 Y47.5343 Z-7.1354
G01 X60.0899 Y47.4158 Z-7.1875
G01 X60.1504 Y47.2931 Z-7.2396
G01 X60.2027 Y47.1667 Z-7.2917
G01 X60.2467 Y47.0372 Z-7.3438
G01 X60.2821 Y46.9050 Z-7.3958
G01 X60.3088 Y46.7708 Z-7.4479
G01 X60.3267 Y46.6352 Z-7.5000
G01 X60.3356 Y46.4987 Z-7.5521
G01 Y46.3619 Z-7.6042
G01 X60.3267 Y46.2254 Z-7.6563
G01 X60.3088 Y46.0897 Z-7.7083
G01 X60.2821 Y45.9556 Z-7.7604
G01 X60.2467 Y45.8234 Z-7.8125
G01 X60.2027 Y45.6939 Z-7.8646
G01 X60.1504 Y45.5675 Z-7.9167
G01 X60.0899 Y45.4448 Z-7.9688
G01 X60.0215 Y45.3263 Z-8.0208
G01 X59.9455 Y45.2126 Z-8.0729
G01 X59.8622 Y45.1040 Z-8.1250
G01 X59.7720 Y45.0012 Z-8.1771
G01 X59.6753 Y44.9045 Z-8.2292
G01 X59.5724 Y44.8143 Z-8.2813
G01 X59.4639 Y44.7310 Z-8.3333
G01 X59.3501 Y44.6550 Z-8.3854
G01 X59.2316 Y44.5866 Z-8.4375
G01 X59.1089 Y44.5261 Z-8.4896
G01 X58.9826 Y44.4737 Z-8.5417
G01 X58.8530 Y44.4297 Z-8.5938
G01 X58.7209 Y44.3943 Z-8.6458
G01 X58.5867 Y44.3676 Z-8.6979
G01 X58.4511 Y44.3498 Z-8.7500
G01 X58.3145 Y44.3408 Z-8.8021
G01 X58.1777 Z-8.8542
G01 X58.0412 Y44.3498 Z-8.9063
G01 X57.9056 Y44.3676 Z-8.9583
G01 X57.7714 Y44.3943 Z-9.0104
G01 X57.6393 Y44.4297 Z-9.0625
G01 X57.5097 Y44.4737 Z-9.1146
G01 X57.3833 Y44.5261 Z-9.1667
G01 X57.2606 Y44.5866 Z-9.2188
G01 X57.1422 Y44.6550 Z-9.2708
G01 X57.0284 Y44.7310 Z-9.3229
G01 X56.9199 Y44.8143 Z-9.3750
G01 X56.8170 Y44.9045 Z-9.4271
G01 X56.7203 Y45.0012 Z-9.4792
G01 X56.6301 Y45.1040 Z-9.5313
G01 X56.5468 Y45.2126 Z-9.5833
G01 X56.4708 Y45.3263 Z-9.6354
G01 X56.4024 Y45.4448 Z-9.6875
G01 X56.3419 Y45.5675 Z-9.7396
G01 X56.2896 Y45.6939 Z-9.7917
G01 X56.2456 Y45.8234 Z-9.8438
G01 X56.2102 Y45.9556 Z-9.8958
G01 X56.1835 Y46.0898 Z-9.9479
G01 X56.1656 Y46.2254 Z-10.0000
G01 X56.1567 Y46.3619 Z-10.0498
G01 Y46.4987 Z-10.0996
G01 X56.1656 Y46.6352 Z-10.1494
G01 X56.1835 Y46.7709 Z-10.1992
G01 X56.2102 Y46.9050 Z-10.2490
G01 X56.2456 Y47.0372 Z-10.2988
G01 X56.2896 Y47.1667 Z-10.3486
G01 X56.3419 Y47.2931 Z-10.3984
G01 X56.4024 Y47.4158 Z-10.4482
G01 X56.4708 Y47.5343 Z-10.4980
G01 X56.5468 Y47.6480 Z-10.5478
G01 X56.6301 Y47.7566 Z-10.5976
G01 X56.7203 Y47.8594 Z-10.6474
G01 X56.8170 Y47.9561 Z-10.6972
G01 X56.9199 Y48.0463 Z-10.7470
G01 X57.0284 Y48.1296 Z-10.7968
G01 X57.1422 Y48.2056 Z-10.8466
G01 X57.2607 Y48.2740 Z-10.8964
G01 X57.3833 Y48.3345 Z-10.9462
G01 X57.5097 Y48.3869 Z-10.9960
G01 X57.6393 Y48.4309 Z-11.0458
G01 X57.7714 Y48.4663 Z-11.0956
G01 X57.9056 Y48.4930 Z-11.1454
G01 X58.0412 Y48.5108 Z-11.1952
G01 X58.1777 Y48.5198 Z-11.2450
G01 X58.3146 Z-11.2948
G01 X58.4511 Y48.5108 Z-11.3446
G01 X58.5867 Y48.4930 Z-11.3944
G01 X58.7209 Y48.4663 Z-11.4442
G01 X58.8530 Y48.4309 Z-11.4940
G01 X58.9826 Y48.3869 Z-11.5438
G01 X59.1089 Y48.3345 Z-11.5936
G01 X59.2316 Y48.2740 Z-11.6435
G01 X59.3501 Y48.2056 Z-11.6933
G01 X59.4639 Y48.1296 Z-11.7431
G01 X59.5724 Y48.0463 Z-11.7929
G01 X59.6753 Y47.9561 Z-11.8427
G01 X59.7720 Y47.8594 Z-11.8925
G01 X59.8622 Y47.7566 Z-11.9423
G01 X59.9455 Y47.6480 Z-11.9921
G01 X60.0215 Y47.5343 Z-12.0419
G01 X60.0899 Y47.4158 Z-12.0917
G01 X60.1504 Y47.2931 Z-12.1415
G01 X60.2027 Y47.1667 Z-12.1913
G01 X60.2467 Y47.0372 Z-12.2411
G01 X60.2821 Y46.9050 Z-12.2909
G01 X60.3088 Y46.7708 Z-12.3407
G01 X60.3267 Y46.6352 Z-12.3905
G01 X60.3356 Y46.4987 Z-12.4403
G01 Y46.3619 Z-12.4901
G01 X60.3267 Y46.2254 Z-12.5399
G01 X60.3088 Y46.0897 Z-12.5897
G01 X60.2821 Y45.9556 Z-12.6395
G01 X60.2467 Y45.8234 Z-12.6893
G01 X60.2027 Y45.6939 Z-12.7391
G01 X60.1504 Y45.5675 Z-12.7889
G01 X60.0899 Y45.4448 Z-12.8387
G01 X60.0215 Y45.3263 Z-12.8885
G01 X59.9455 Y45.2126 Z-12.9383
G01 X59.8622 Y45.1040 Z-12.9881
G01 X59.7720 Y45.0012 Z-13.0379
G01 X59.6753 Y44.9045 Z-13.0877
G01 X59.5724 Y44.8143 Z-13.1375
G01 X59.4639 Y44.7310 Z-13.1873
G01 X59.3714 Y44.6684 Z-13.2279
G01 X59.2758 Y44.6108 Z-13.2686
G01 X59.1772 Y44.5585 Z-13.3092
G01 X59.0759 Y44.5114 Z-13.3498
G01 X58.9723 Y44.4699 Z-13.3905
G01 X58.8667 Y44.4339 Z-13.4311
G01 X58.7592 Y44.4036 Z-13.4717
G01 X58.6503 Y44.3792 Z-13.5124
G01 X58.5402 Y44.3605 Z-13.5530
G01 X58.4293 Y44.3478 Z-13.5936
G01 X58.3179 Y44.3409 Z-13.6343
G01 X58.2063 Y44.3401 Z-13.6749
G01 X58.0948 Y44.3452 Z-13.7156
G01 X57.9837 Y44.3563 Z-13.7562
G01 X57.8734 Y44.3732 Z-13.7968
G01 X57.7641 Y44.3961 Z-13.8375
G01 X57.6562 Y44.4247 Z-13.8781
G01 X57.5500 Y44.4590 Z-13.9187
G01 X57.4457 Y44.4990 Z-13.9594
G01 X57.3438 Y44.5445 Z-14.0000
G01 X57.2248 Y44.6062 F3600
G01 X57.1099 Y44.6754
G01 X56.9998 Y44.7519
G01 X56.8948 Y44.8352
G01 X56.7953 Y44.9251
G01 X56.7018 Y45.0212
G01 X56.6146 Y45.1231
G01 X56.5342 Y45.2304
G01 X56.4608 Y45.3426
G01 X56.3948 Y45.4593
G01 X56.3363 Y45.5799
G01 X56.2857 Y45.7041
G01 X56.2432 Y45.8313
G01 X56.2089 Y45.9609
G01 X56.1830 Y46.0924
G01 X56.1656 Y46.2254
G01 X56.1567 Y46.3619
G01 Y46.4987
G01 X56.1656 Y46.6352
G01 X56.1835 Y46.7709
G01 X56.2102 Y46.9050
G01 X56.2456 Y47.0372
G01 X56.2896 Y47.1667
G01 X56.3419 Y47.2931
G01 X56.4024 Y47.4158
G01 X56.4708 Y47.5343
G01 X56.5468 Y47.6480
G01 X56.6301 Y47.7566
G01 X56.7203 Y47.8594
G01 X56.8170 Y47.9561
G01 X56.9199 Y48.0463
G01 X57.0284 Y48.1296
G01 X57.1422 Y48.2056
G01 X57.2607 Y48.2740
G01 X57.3833 Y48.3345
G01 X57.5097 Y48.3869
G01 X57.6393 Y48.4309
G01 X57.7714 Y48.4663
G01 X57.9056 Y48.4930
G01 X58.0412 Y48.5108
G01 X58.1777 Y48.5198
G01 X58.3146
G01 X58.4511 Y48.5108
G01 X58.5867 Y48.4930
G01 X58.7209 Y48.4663
G01 X58.8530 Y48.4309
G01 X58.9826 Y48.3869
G01 X59.1089 Y48.3345
G01 X59.2316 Y48.2740
G01 X59.3501 Y48.2056
G01 X59.4639 Y48.1296
G01 X59.5724 Y48.0463
G01 X59.6753 Y47.9561
G01 X59.7720 Y47.8594
G01 X59.8622 Y47.7566
G01 X59.9455 Y47.6480
G01 X60.0215 Y47.5343
G01 X60.0899 Y47.4158
G01 X60.1504 Y47.2931
G01 X60.2027 Y47.1667
G01 X60.2467 Y47.0372
G01 X60.2821 Y46.9050
G01 X60.3088 Y46.7708
G01 X60.3267 Y46.6352
G01 X60.3356 Y46.4987
G01 Y46.3619
G01 X60.3267 Y46.2254
G01 X60.3088 Y46.0897
G01 X60.2821 Y45.9556
G01 X60.2467 Y45.8234
G01 X60.2027 Y45.6939
G01 X60.1504 Y45.5675
G01 X60.0899 Y45.4448
G01 X60.0215 Y45.3263
G01 X59.9455 Y45.2126
G01 X59.8622 Y45.1040
G01 X59.7720 Y45.0012
G01 X59.6753 Y44.9045
G01 X59.5724 Y44.8143
G01 X59.4639 Y44.7310
G01 X59.3714 Y44.6684
G01 X59.2758 Y44.6108
G01 X59.1772 Y44.5585
G01 X59.0759 Y44.5114
G01 X58.9723 Y44.4699
G01 X58.8667 Y44.4339
G01 X58.7592 Y44.4036
G01 X58.6503 Y44.3792
G01 X58.5402 Y44.3605
G01 X58.4293 Y44.3478
G01 X58.3179 Y44.3409
G01 X58.2063 Y44.3401
G01 X58.0948 Y44.3452
G01 X57.9837 Y44.3563
G01 X57.8734 Y44.3732
G01 X57.7641 Y44.3961
G01 X57.6562 Y44.4247
G01 X57.5500 Y44.4590
G01 X57.4457 Y44.4990
G01 X57.3438 Y44.5445
G00 Z5.0000

(Nr. 3 Ausschnitt bearbeiten: Ausschnitt 219)
G00 X66.5048 Y46.5818 Z5.0000
G00 Z0.5000
G01 Z0.0000 F1800
G01 X66.4849 Y46.7022 Z-0.0521
G01 X66.4730 Y46.8236 Z-0.1042
G01 X66.4690 Y46.9455 Z-0.1563
G01 X66.4730 Y47.0674 Z-0.2083
G01 X66.4849 Y47.1888 Z-0.2604
G01 X66.5048 Y47.3091 Z-0.3125
G01 X66.5325 Y47.4279 Z-0.3646
G01 X66.5679 Y47.5446 Z-0.4167
G01 X66.6108 Y47.6588 Z-0.4688
G01 X66.6612 Y47.7699 Z-0.5208
G01 X66.7187 Y47.8774 Z-0.5729
G01 X66.7831 Y47.9810 Z-0.6250
G01 X66.8541 Y48.0801 Z-0.6771
G01 X66.9315 Y48.1744 Z-0.7292
G01 X67.0149 Y48.2635 Z-0.7813
G01 X67.1039 Y48.3468 Z-0.8333
G01 X67.1982 Y48.4242 Z-0.8854
G01 X67.2973 Y48.4953 Z-0.9375
G01 X67.4009 Y48.5597 Z-0.9896
G01 X67.5085 Y48.6172 Z-1.0417
G01 X67.6196 Y48.6675 Z-1.0938
G01 X67.7337 Y48.7105 Z-1.1458
G01 X67.8505 Y48.7459 Z-1.1979
G01 X67.9692 Y48.7736 Z-1.2500
G01 X68.0896 Y48.7934 Z-1.3021
G01 X68.2110 Y48.8054 Z-1.3542
G01 X68.3329 Y48.8094 Z-1.4063
G01 X68.4548 Y48.8054 Z-1.4583
G01 X68.5762 Y48.7934 Z-1.5104
G01 X68.6965 Y48.7736 Z-1.5625
G01 X68.8153 Y48.7459 Z-1.6146
G01 X68.9320 Y48.7105 Z-1.6667
G01 X69.0462 Y48.6675 Z-1.7188
G01 X69.1573 Y48.6172 Z-1.7708
G01 X69.2648 Y48.5597 Z-1.8229
G01 X69.3684 Y48.4953 Z-1.8750
G01 X69.4676 Y48.4242 Z-1.9271
G01 X69.5618 Y48.3468 Z-1.9792
G01 X69.6509 Y48.2635 Z-2.0313
G01 X69.7342 Y48.1744 Z-2.0833
G01 X69.8116 Y48.0802 Z-2.1354
G01 X69.8827 Y47.9810 Z-2.1875
G01 X69.9471 Y47.8774 Z-2.2396
G01 X70.0046 Y47.7699 Z-2.2917
G01 X70.0549 Y47.6588 Z-2.3438
G01 X70.0979 Y47.5446 Z-2.3958
G01 X70.1333 Y47.4279 Z-2.4479
G01 X70.1610 Y47.3091 Z-2.5000
G01 X70.1809 Y47.1888 Z-2.5521
G01 X70.1928 Y47.0674 Z-2.6042
G01 X70.1968 Y46.9455 Z-2.6563
G01 X70.1928 Y46.8236 Z-2.7083
G01 X70.1809 Y46.7022 Z-2.7604
G01 X70.1610 Y46.5818 Z-2.8125
G01 X70.1333 Y46.4631 Z-2.8646
G01 X70.0979 Y46.3463 Z-2.9167
G01 X70.0549 Y46.2322 Z-2.9688
G01 X70.0046 Y46.1211 Z-3.0208
G01 X69.9471 Y46.0135 Z-3.0729
G01 X69.8827 Y45.9099 Z-3.1250
G01 X69.8116 Y45.8108 Z-3.1771
G01 X69.7343 Y45.7165 Z-3.2292
G01 X69.6509 Y45.6275 Z-3.2813
G01 X69.5619 Y45.5441 Z-3.3333
G01 X69.4676 Y45.4667 Z-3.3854
G01 X69.3684 Y45.3957 Z-3.4375
G01 X69.2648 Y45.3313 Z-3.4896
G01 X69.1573 Y45.2738 Z-3.5417
G01 X69.0462 Y45.2234 Z-3.5938
G01 X68.9320 Y45.1805 Z-3.6458
G01 X68.8153 Y45.1451 Z-3.6979
G01 X68.6965 Y45.1174 Z-3.7500
G01 X68.5762 Y45.0975 Z-3.8021
G01 X68.4548 Y45.0855 Z-3.8542
G01 X68.3329 Y45.0815 Z-3.9063
G01 X68.2110 Y45.0855 Z-3.9583
G01 X68.0896 Y45.0975 Z-4.0104
G01 X67.9693 Y45.1174 Z-4.0625
G01 X67.8505 Y45.1451 Z-4.1146
G01 X67.7337 Y45.1805 Z-4.1667
G01 X67.6196 Y45.2234 Z-4.2188
G01 X67.5085 Y45.2738 Z-4.2708
G01 X67.4009 Y45.3313 Z-4.3229
G01 X67.2973 Y45.3957 Z-4.3750
G01 X67.1982 Y45.4667 Z-4.4271
G01 X67.1039 Y45.5441 Z-4.4792
G01 X67.0149 Y45.6275 Z-4.5313
G01 X66.9315 Y45.7165 Z-4.5833
G01 X66.8541 Y45.8108 Z-4.6354
G01 X66.7831 Y45.9099 Z-4.6875
G01 X66.7187 Y46.0135 Z-4.7396
G01 X66.6612 Y46.1211 Z-4.7917
G01 X66.6108 Y46.2322 Z-4.8438
G01 X66.5679 Y46.3463 Z-4.8958
G01 X66.5325 Y46.4630 Z-4.9479
G01 X66.5048 Y46.5818 Z-5.0000
G01 X66.4849 Y46.7022 Z-5.0521
G01 X66.4730 Y46.8236 Z-5.1042
G01 X66.4690 Y46.9455 Z-5.1563
G01 X66.4730 Y47.0674 Z-5.2083
G01 X66.4849 Y47.1888 Z-5.2604
G01 X66.5048 Y47.3091 Z-5.3125
G01 X66.5325 Y47.4279 Z-5.3646
G01 X66.5679 Y47.5446 Z-5.4167
G01 X66.6108 Y47.6588 Z-5.4688
G01 X66.6612 Y47.7699 Z-5.5208
G01 X66.7187 Y47.8774 Z-5.5729
G01 X66.7831 Y47.9810 Z-5.6250
G01 X66.8541 Y48.0801 Z-5.6771
G01 X66.9315 Y48.1744 Z-5.7292
G01 X67.0149 Y48.2635 Z-5.7813
G01 X67.1039 Y48.3468 Z-5.8333
G01 X67.1982 Y48.4242 Z-5.8854
G01 X67.2973 Y48.4953 Z-5.9375
G01 X67.4009 Y48.5597 Z-5.9896
G01 X67.5085 Y48.6172 Z-6.0417
G01 X67.6196 Y48.6675 Z-6.0938
G01 X67.7337 Y48.7105 Z-6.1458
G01 X67.8505 Y48.7459 Z-6.1979
G01 X67.9692 Y48.7736 Z-6.2500
G01 X68.0896 Y48.7934 Z-6.3021
G01 X68.2110 Y48.8054 Z-6.3542
G01 X68.3329 Y48.8094 Z-6.4063
G01 X68.4548 Y48.8054 Z-6.4583
G01 X68.5762 Y48.7934 Z-6.5104
G01 X68.6965 Y48.7736 Z-6.5625
G01 X68.8153 Y48.7459 Z-6.6146
G01 X68.9320 Y48.7105 Z-6.6667
G01 X69.0462 Y48.6675 Z-6.7188
G01 X69.1573 Y48.6172 Z-6.7708
G01 X69.2648 Y48.5597 Z-6.8229
G01 X69.3684 Y48.4953 Z-6.8750
G01 X69.4676 Y48.4242 Z-6.9271
G01 X69.5618 Y48.3468 Z-6.9792
G01 X69.6509 Y48.2635 Z-7.0313
G01 X69.7342 Y48.1744 Z-7.0833
G01 X69.8116 Y48.0802 Z-7.1354
G01 X69.8827 Y47.9810 Z-7.1875
G01 X69.9471 Y47.8774 Z-7.2396
G01 X70.0046 Y47.7699 Z-7.2917
G01 X70.0549 Y47.6588 Z-7.3438
G01 X70.0979 Y47.5446 Z-7.3958
G01 X70.1333 Y47.4279 Z-7.4479
G01 X70.1610 Y47.3091 Z-7.5000
G01 X70.1809 Y47.1888 Z-7.5521
G01 X70.1928 Y47.0674 Z-7.6042
G01 X70.1968 Y46.9455 Z-7.6563
G01 X70.1928 Y46.8236 Z-7.7083
G01 X70.1809 Y46.7022 Z-7.7604
G01 X70.1610 Y46.5818 Z-7.8125
G01 X70.1333 Y46.4631 Z-7.8646
G01 X70.0979 Y46.3463 Z-7.9167
G01 X70.0549 Y46.2322 Z-7.9688
G01 X70.0046 Y46.1211 Z-8.0208
G01 X69.9471 Y46.0135 Z-8.0729
G01 X69.8827 Y45.9099 Z-8.1250
G01 X69.8116 Y45.8108 Z-8.1771
G01 X69.7343 Y45.7165 Z-8.2292
G01 X69.6509 Y45.6275 Z-8.2813
G01 X69.5619 Y45.5441 Z-8.3333
G01 X69.4676 Y45.4667 Z-8.3854
G01 X69.3684 Y45.3957 Z-8.4375
G01 X69.2648 Y45.3313 Z-8.4896
G01 X69.1573 Y45.2738 Z-8.5417
G01 X69.0462 Y45.2234 Z-8.5938
G01 X68.9320 Y45.1805 Z-8.6458
G01 X68.8153 Y45.1451 Z-8.6979
G01 X68.6965 Y45.1174 Z-8.7500
G01 X68.5762 Y45.0975 Z-8.8021
G01 X68.4548 Y45.0855 Z-8.8542
G01 X68.3329 Y45.0815 Z-8.9063
G01 X68.2110 Y45.0855 Z-8.9583
G01 X68.0896 Y45.0975 Z-9.0104
G01 X67.9693 Y45.1174 Z-9.0625
G01 X67.8505 Y45.1451 Z-9.1146
G01 X67.7337 Y45.1805 Z-9.1667
G01 X67.6196 Y45.2234 Z-9.2188
G01 X67.5085 Y45.2738 Z-9.2708
G01 X67.4009 Y45.3313 Z-9.3229
G01 X67.2973 Y45.3957 Z-9.3750
G01 X67.1982 Y45.4667 Z-9.4271
G01 X67.1039 Y45.5441 Z-9.4792
G01 X67.0149 Y45.6275 Z-9.5313
G01 X66.9315 Y45.7165 Z-9.5833
G01 X66.8541 Y45.8108 Z-9.6354
G01 X66.7831 Y45.9099 Z-9.6875
G01 X66.7187 Y46.0135 Z-9.7396
G01 X66.6612 Y46.1211 Z-9.7917
G01 X66.6108 Y46.2322 Z-9.8438
G01 X66.5679 Y46.3463 Z-9.8958
G01 X66.5325 Y46.4630 Z-9.9479
G01 X66.5048 Y46.5818 Z-10.0000
G01 X66.4849 Y46.7022 Z-10.0444
G01 X66.4730 Y46.8236 Z-10.0888
G01 X66.4690 Y46.9455 Z-10.1332
G01 X66.4730 Y47.0674 Z-10.1776
G01 X66.4849 Y47.1888 Z-10.2220
G01 X66.5048 Y47.3091 Z-10.2664
G01 X66.5325 Y47.4279 Z-10.3108
G01 X66.5679 Y47.5446 Z-10.3552
G01 X66.6108 Y47.6588 Z-10.3996
G01 X66.6612 Y47.7699 Z-10.4440
G01 X66.7187 Y47.8774 Z-10.4884
G01 X66.7831 Y47.9810 Z-10.5328
G01 X66.8541 Y48.0801 Z-10.5772
G01 X66.9315 Y48.1744 Z-10.6216
G01 X67.0149 Y48.2635 Z-10.6660
G01 X67.1039 Y48.3468 Z-10.7104
G01 X67.1982 Y48.4242 Z-10.7548
G01 X67.2973 Y48.4953 Z-10.7992
G01 X67.4009 Y48.5597 Z-10.8436
G01 X67.5085 Y48.6172 Z-10.8880
G01 X67.6196 Y48.6675 Z-10.9324
G01 X67.7337 Y48.7105 Z-10.9768
G01 X67.8505 Y48.7459 Z-11.0212
G01 X67.9692 Y48.7736 Z-11.0656
G01 X68.0896 Y48.7934 Z-11.1100
G01 X68.2110 Y48.8054 Z-11.1544
G01 X68.3329 Y48.8094 Z-11.1989
G01 X68.4548 Y48.8054 Z-11.2433
G01 X68.5762 Y48.7934 Z-11.2877
G01 X68.6965 Y48.7736 Z-11.3321
G01 X68.8153 Y48.7459 Z-11.3765
G01 X68.9320 Y48.7105 Z-11.4209
G01 X69.0462 Y48.6675 Z-11.4653
G01 X69.1573 Y48.6172 Z-11.5097
G01 X69.2648 Y48.5597 Z-11.5541
G01 X69.3684 Y48.4953 Z-11.5985
G01 X69.4676 Y48.4242 Z-11.6429
G01 X69.5618 Y48.3468 Z-11.6873
G01 X69.6509 Y48.2635 Z-11.7317
G01 X69.7342 Y48.1744 Z-11.7761
G01 X69.8116 Y48.0802 Z-11.8205
G01 X69.8827 Y47.9810 Z-11.8649
G01 X69.9471 Y47.8774 Z-11.9093
G01 X70.0046 Y47.7699 Z-11.9537
G01 X70.0549 Y47.6588 Z-11.9981
G01 X70.0979 Y47.5446 Z-12.0425
G01 X70.1333 Y47.4279 Z-12.0869
G01 X70.1610 Y47.3091 Z-12.1313
G01 X70.1809 Y47.1888 Z-12.1757
G01 X70.1928 Y47.0674 Z-12.2201
G01 X70.1968 Y46.9455 Z-12.2645
G01 X70.1928 Y46.8236 Z-12.3089
G01 X70.1809 Y46.7022 Z-12.3533
G01 X70.1610 Y46.5818 Z-12.3977
G01 X70.1333 Y46.4631 Z-12.4421
G01 X70.0979 Y46.3463 Z-12.4865
G01 X70.0549 Y46.2322 Z-12.5309
G01 X70.0046 Y46.1211 Z-12.5753
G01 X69.9471 Y46.0135 Z-12.6197
G01 X69.8827 Y45.9099 Z-12.6641
G01 X69.8116 Y45.8108 Z-12.7085
G01 X69.7343 Y45.7165 Z-12.7529
G01 X69.6509 Y45.6275 Z-12.7973
G01 X69.5619 Y45.5441 Z-12.8417
G01 X69.4742 Y45.4718 Z-12.8831
G01 X69.3822 Y45.4050 Z-12.9245
G01 X69.2864 Y45.3439 Z-12.9658
G01 X69.1871 Y45.2888 Z-13.0072
G01 X69.0845 Y45.2398 Z-13.0486
G01 X68.9792 Y45.1972 Z-13.0899
G01 X68.8714 Y45.1610 Z-13.1313
G01 X68.7617 Y45.1315 Z-13.1727
G01 X68.6504 Y45.1088 Z-13.2140
G01 X68.5378 Y45.0929 Z-13.2554
G01 X68.4246 Y45.0838 Z-13.2968
G01 X68.3109 Y45.0817 Z-13.3381
G01 X68.1974 Y45.0865 Z-13.3795
G01 X68.0844 Y45.0982 Z-13.4209
G01 X67.9723 Y45.1168 Z-13.4622
G01 X67.8615 Y45.1421 Z-13.5036
G01 X67.7525 Y45.1742 Z-13.5450
G01 X67.6456 Y45.2129 Z-13.5863
G01 X67.5413 Y45.2580 Z-13.6277
G01 X67.4400 Y45.3093 Z-13.6691
G01 X67.3419 Y45.3668 Z-13.7104
G01 X67.2476 Y45.4301 Z-13.7518
G01 X67.1572 Y45.4991 Z-13.7932
G01 X67.0713 Y45.5734 Z-13.8345
G01 X66.9900 Y45.6528 Z-13.8759
G01 X66.9137 Y45.7371 Z-13.9173
G01 X66.8427 Y45.8258 Z-13.9586
G01 X66.7773 Y45.9187 Z-14.0000
G01 X66.7294 Y45.9951 F3600
G01 X66.6853 Y46.0738
G01 X66.6451 Y46.1545
G01 X66.6088 Y46.2370
G01 X66.5766 Y46.3212
G01 X66.5485 Y46.4069
G01 X66.5245 Y46.4938
G01 X66.5048 Y46.5818
G01 X66.4849 Y46.7022
G01 X66.4730 Y46.8236
G01 X66.4690 Y46.9455
G01 X66.4730 Y47.0674
G01 X66.4849 Y47.1888
G01 X66.5048 Y47.3091
G01 X66.5325 Y47.4279
G01 X66.5679 Y47.5446
G01 X66.6108 Y47.6588
G01 X66.6612 Y47.7699
G01 X66.7187 Y47.8774
G01 X66.7831 Y47.9810
G01 X66.8541 Y48.0801
G01 X66.9315 Y48.1744
G01 X67.0149 Y48.2635
G01 X67.1039 Y48.3468
G01 X67.1982 Y48.4242
G01 X67.2973 Y48.4953
G01 X67.4009 Y48.5597
G01 X67.5085 Y48.6172
G01 X67.6196 Y48.6675
G01 X67.7337 Y48.7105
G01 X67.8505 Y48.7459
G01 X67.9692 Y48.7736
G01 X68.0896 Y48.7934
G01 X68.2110 Y48.8054
G01 X68.3329 Y48.8094
G01 X68.4548 Y48.8054
G01 X68.5762 Y48.7934
G01 X68.6965 Y48.7736
G01 X68.8153 Y48.7459
G01 X68.9320 Y48.7105
G01 X69.0462 Y48.6675
G01 X69.1573 Y48.6172
G01 X69.2648 Y48.5597
G01 X69.3684 Y48.4953
G01 X69.4676 Y48.4242
G01 X69.5618 Y48.3468
G01 X69.6509 Y48.2635
G01 X69.7342 Y48.1744
G01 X69.8116 Y48.0802
G01 X69.8827 Y47.9810
G01 X69.9471 Y47.8774
G01 X70.0046 Y47.7699
G01 X70.0549 Y47.6588
G01 X70.0979 Y47.5446
G01 X70.1333 Y47.4279
G01 X70.1610 Y47.3091
G01 X70.1809 Y47.1888
G01 X70.1928 Y47.0674
G01 X70.1968 Y46.9455
G01 X70.1928 Y46.8236
G01 X70.1809 Y46.7022
G01 X70.1610 Y46.5818
G01 X70.1333 Y46.4631
G01 X70.0979 Y46.3463
G01 X70.0549 Y46.2322
G01 X70.0046 Y46.1211
G01 X69.9471 Y46.0135
G01 X69.8827 Y45.9099
G01 X69.8116 Y45.8108
G01 X69.7343 Y45.7165
G01 X69.6509 Y45.6275
G01 X69.5619 Y45.5441
G01 X69.4742 Y45.4718
G01 X69.3822 Y45.4050
G01 X69.2864 Y45.3439
G01 X69.1871 Y45.2888
G01 X69.0845 Y45.2398
G01 X68.9792 Y45.1972
G01 X68.8714 Y45.1610
G01 X68.7617 Y45.1315
G01 X68.6504 Y45.1088
G01 X68.5378 Y45.0929
G01 X68.4246 Y45.0838
G01 X68.3109 Y45.0817
G01 X68.1974 Y45.0865
G01 X68.0844 Y45.0982
G01 X67.9723 Y45.1168
G01 X67.8615 Y45.1421
G01 X67.7525 Y45.1742
G01 X67.6456 Y45.2129
G01 X67.5413 Y45.2580
G01 X67.4400 Y45.3093
G01 X67.3419 Y45.3668
G01 X67.2476 Y45.4301
G01 X67.1572 Y45.4991
G01 X67.0713 Y45.5734
G01 X66.9900 Y45.6528
G01 X66.9137 Y45.7371
G01 X66.8427 Y45.8258
G01 X66.7773 Y45.9187
G00 Z5.0000

(Nr. 4 Ausschnitt bearbeiten: Ausschnitt 185)
G00 X76.6052 Y48.5523 Z5.0000
G00 Z0.5000
G01 Z0.0000 F1800
G01 X76.5732 Y48.6646 Z-0.0568
G01 X76.5494 Y48.7790 Z-0.1136
G01 X76.5337 Y48.8947 Z-0.1704
G01 X76.5264 Y49.0113 Z-0.2272
G01 X76.5273 Y49.1281 Z-0.2840
G01 X76.5366 Y49.2445 Z-0.3408
G01 X76.5542 Y49.3600 Z-0.3976
G01 X76.5800 Y49.4739 Z-0.4544
G01 X76.6138 Y49.5857 Z-0.5112
G01 X76.6555 Y49.6948 Z-0.5681
G01 X76.7049 Y49.8007 Z-0.6249
G01 X76.7617 Y49.9027 Z-0.6817
G01 X76.8257 Y50.0005 Z-0.7385
G01 X76.8964 Y50.0934 Z-0.7953
G01 X76.9736 Y50.1811 Z-0.8521
G01 X77.0569 Y50.2630 Z-0.9089
G01 X77.1457 Y50.3388 Z-0.9657
G01 X77.2398 Y50.4080 Z-1.0225
G01 X77.3386 Y50.4704 Z-1.0793
G01 X77.4415 Y50.5256 Z-1.1361
G01 X77.5481 Y50.5732 Z-1.1929
G01 X77.6579 Y50.6132 Z-1.2497
G01 X77.7702 Y50.6452 Z-1.3065
G01 X77.8845 Y50.6692 Z-1.3633
G01 X78.0003 Y50.6849 Z-1.4201
G01 X78.1168 Y50.6923 Z-1.4769
G01 X78.2336 Y50.6914 Z-1.5337
G01 X78.3501 Y50.6822 Z-1.5906
G01 X78.4656 Y50.6647 Z-1.6474
G01 X78.5795 Y50.6390 Z-1.7042
G01 X78.6913 Y50.6053 Z-1.7610
G01 X78.8005 Y50.5636 Z-1.8178
G01 X78.9063 Y50.5143 Z-1.8746
G01 X79.0084 Y50.4576 Z-1.9314
G01 X79.1062 Y50.3937 Z-1.9882
G01 X79.1992 Y50.3230 Z-2.0450
G01 X79.2869 Y50.2458 Z-2.1018
G01 X79.3689 Y50.1626 Z-2.1586
G01 X79.4447 Y50.0738 Z-2.2154
G01 X79.5140 Y49.9798 Z-2.2722
G01 X79.5765 Y49.8811 Z-2.3290
G01 X79.6317 Y49.7782 Z-2.3858
G01 X79.6795 Y49.6716 Z-2.4426
G01 X79.7195 Y49.5618 Z-2.4994
G01 X79.7516 Y49.4495 Z-2.5563
G01 X79.7756 Y49.3351 Z-2.6131
G01 X79.7914 Y49.2193 Z-2.6699
G01 X79.7989 Y49.1027 Z-2.7268
G01 X79.7981 Y48.9859 Z-2.7836
G01 X79.7889 Y48.8694 Z-2.8404
G01 X79.7715 Y48.7538 Z-2.8973
G01 X79.7458 Y48.6398 Z-2.9541
G01 X79.7121 Y48.5279 Z-3.0109
G01 X79.6705 Y48.4187 Z-3.0677
G01 X79.6212 Y48.3128 Z-3.1246
G01 X79.5645 Y48.2106 Z-3.1814
G01 X79.5006 Y48.1128 Z-3.2382
G01 X79.4299 Y48.0197 Z-3.2951
G01 X79.3527 Y47.9320 Z-3.3519
G01 X79.2695 Y47.8499 Z-3.4087
G01 X79.1807 Y47.7740 Z-3.4656
G01 X79.0866 Y47.7047 Z-3.5224
G01 X78.9879 Y47.6422 Z-3.5792
G01 X78.8849 Y47.5869 Z-3.6361
G01 X78.7783 Y47.5392 Z-3.6929
G01 X78.6685 Y47.4991 Z-3.7497
G01 X78.5561 Y47.4670 Z-3.8066
G01 X78.4418 Y47.4430 Z-3.8634
G01 X78.3260 Y47.4272 Z-3.9202
G01 X78.2094 Y47.4197 Z-3.9770
G01 X78.0925 Y47.4205 Z-4.0339
G01 X77.9760 Y47.4297 Z-4.0907
G01 X77.8605 Y47.4471 Z-4.1475
G01 X77.7465 Y47.4728 Z-4.2044
G01 X77.6346 Y47.5065 Z-4.2612
G01 X77.5254 Y47.5481 Z-4.3180
G01 X77.4195 Y47.5974 Z-4.3749
G01 X77.3173 Y47.6541 Z-4.4317
G01 X77.2194 Y47.7180 Z-4.4885
G01 X77.1264 Y47.7887 Z-4.5454
G01 X77.0386 Y47.8659 Z-4.6022
G01 X76.9566 Y47.9491 Z-4.6590
G01 X76.8807 Y48.0379 Z-4.7158
G01 X76.8113 Y48.1320 Z-4.7727
G01 X76.7489 Y48.2307 Z-4.8295
G01 X76.6936 Y48.3337 Z-4.8863
G01 X76.6458 Y48.4403 Z-4.9432
G01 X76.6058 Y48.5501 Z-5.0000
G01 X76.6052 Y48.5523
G01 X76.5732 Y48.6646 Z-5.0568
G01 X76.5494 Y48.7790 Z-5.1136
G01 X76.5337 Y48.8947 Z-5.1704
G01 X76.5264 Y49.0113 Z-5.2272
G01 X76.5273 Y49.1281 Z-5.2840
G01 X76.5366 Y49.2445 Z-5.3408
G01 X76.5542 Y49.3600 Z-5.3976
G01 X76.5800 Y49.4739 Z-5.4544
G01 X76.6138 Y49.5857 Z-5.5112
G01 X76.6555 Y49.6948 Z-5.5681
G01 X76.7049 Y49.8007 Z-5.6249
G01 X76.7617 Y49.9027 Z-5.6817
G01 X76.8257 Y50.0005 Z-5.7385
G01 X76.8964 Y50.0934 Z-5.7953
G01 X76.9736 Y50.1811 Z-5.8521
G01 X77.0569 Y50.2630 Z-5.9089
G01 X77.1457 Y50.3388 Z-5.9657
G01 X77.2398 Y50.4080 Z-6.0225
G01 X77.3386 Y50.4704 Z-6.0793
G01 X77.4415 Y50.5256 Z-6.1361
G01 X77.5481 Y50.5732 Z-6.1929
G01 X77.6579 Y50.6132 Z-6.2497
G01 X77.7702 Y50.6452 Z-6.3065
G01 X77.8845 Y50.6692 Z-6.3633
G01 X78.0003 Y50.6849 Z-6.4201
G01 X78.1168 Y50.6923 Z-6.4769
G01 X78.2336 Y50.6914 Z-6.5337
G01 X78.3501 Y50.6822 Z-6.5906
G01 X78.4656 Y50.6647 Z-6.6474
G01 X78.5795 Y50.6390 Z-6.7042
G01 X78.6913 Y50.6053 Z-6.7610
G01 X78.8005 Y50.5636 Z-6.8178
G01 X78.9063 Y50.5143 Z-6.8746
G01 X79.0084 Y50.4576 Z-6.9314
G01 X79.1062 Y50.3937 Z-6.9882
G01 X79.1992 Y50.3230 Z-7.0450
G01 X79.2869 Y50.2458 Z-7.1018
G01 X79.3689 Y50.1626 Z-7.1586
G01 X79.4447 Y50.0738 Z-7.2154
G01 X79.5140 Y49.9798 Z-7.2722
G01 X79.5765 Y49.8811 Z-7.3290
G01 X79.6317 Y49.7782 Z-7.3858
G01 X79.6795 Y49.6716 Z-7.4426
G01 X79.7195 Y49.5618 Z-7.4994
G01 X79.7516 Y49.4495 Z-7.5563
G01 X79.7756 Y49.3351 Z-7.6131
G01 X79.7914 Y49.2193 Z-7.6699
G01 X79.7989 Y49.1027 Z-7.7268
G01 X79.7981 Y48.9859 Z-7.7836
G01 X79.7889 Y48.8694 Z-7.8404
G01 X79.7715 Y48.7538 Z-7.8973
G01 X79.7458 Y48.6398 Z-7.9541
G01 X79.7121 Y48.5279 Z-8.0109
G01 X79.6705 Y48.4187 Z-8.0677
G01 X79.6212 Y48.3128 Z-8.1246
G01 X79.5645 Y48.2106 Z-8.1814
G01 X79.5006 Y48.1128 Z-8.2382
G01 X79.4299 Y48.0197 Z-8.2951
G01 X79.3527 Y47.9320 Z-8.3519
G01 X79.2695 Y47.8499 Z-8.4087
G01 X79.1807 Y47.7740 Z-8.4656
G01 X79.0866 Y47.7047 Z-8.5224
G01 X78.9879 Y47.6422 Z-8.5792
G01 X78.8849 Y47.5869 Z-8.6361
G01 X78.7783 Y47.5392 Z-8.6929
G01 X78.6685 Y47.4991 Z-8.7497
G01 X78.5561 Y47.4670 Z-8.8066
G01 X78.4418 Y47.4430 Z-8.8634
G01 X78.3260 Y47.4272 Z-8.9202
G01 X78.2094 Y47.4197 Z-8.9770
G01 X78.0925 Y47.4205 Z-9.0339
G01 X77.9760 Y47.4297 Z-9.0907
G01 X77.8605 Y47.4471 Z-9.1475
G01 X77.7465 Y47.4728 Z-9.2044
G01 X77.6346 Y47.5065 Z-9.2612
G01 X77.5254 Y47.5481 Z-9.3180
G01 X77.4195 Y47.5974 Z-9.3749
G01 X77.3173 Y47.6541 Z-9.4317
G01 X77.2194 Y47.7180 Z-9.4885
G01 X77.1264 Y47.7887 Z-9.5454
G01 X77.0386 Y47.8659 Z-9.6022
G01 X76.9566 Y47.9491 Z-9.6590
G01 X76.8807 Y48.0379 Z-9.7158
G01 X76.8113 Y48.1320 Z-9.7727
G01 X76.7489 Y48.2307 Z-9.8295
G01 X76.6936 Y48.3337 Z-9.8863
G01 X76.6458 Y48.4403 Z-9.9432
G01 X76.6058 Y48.5501 Z-10.0000
G01 X76.6052 Y48.5523
G01 X76.5732 Y48.6646 Z-10.0454
G01 X76.5494 Y48.7790 Z-10.0909
G01 X76.5337 Y48.8947 Z-10.1363
G01 X76.5264 Y49.0113 Z-10.1818
G01 X76.5273 Y49.1281 Z-10.2272
G01 X76.5366 Y49.2445 Z-10.2727
G01 X76.5542 Y49.3600 Z-10.3181
G01 X76.5800 Y49.4739 Z-10.3636
G01 X76.6138 Y49.5857 Z-10.4090
G01 X76.6555 Y49.6948 Z-10.4544
G01 X76.7049 Y49.8007 Z-10.4999
G01 X76.7617 Y49.9027 Z-10.5453
G01 X76.8257 Y50.0005 Z-10.5908
G01 X76.8964 Y50.0934 Z-10.6362
G01 X76.9736 Y50.1811 Z-10.6817
G01 X77.0569 Y50.2630 Z-10.7271
G01 X77.1457 Y50.3388 Z-10.7726
G01 X77.2398 Y50.4080 Z-10.8180
G01 X77.3386 Y50.4704 Z-10.8634
G01 X77.4415 Y50.5256 Z-10.9089
G01 X77.5481 Y50.5732 Z-10.9543
G01 X77.6579 Y50.6132 Z-10.9998
G01 X77.7702 Y50.6452 Z-11.0452
G01 X77.8845 Y50.6692 Z-11.0907
G01 X78.0003 Y50.6849 Z-11.1361
G01 X78.1168 Y50.6923 Z-11.1816
G01 X78.2336 Y50.6914 Z-11.2270
G01 X78.3501 Y50.6822 Z-11.2724
G01 X78.4656 Y50.6647 Z-11.3179
G01 X78.5795 Y50.6390 Z-11.3633
G01 X78.6913 Y50.6053 Z-11.4088
G01 X78.8005 Y50.5636 Z-11.4542
G01 X78.9063 Y50.5143 Z-11.4997
G01 X79.0084 Y50.4576 Z-11.5451
G01 X79.1062 Y50.3937 Z-11.5906
G01 X79.1992 Y50.3230 Z-11.6360
G01 X79.2869 Y50.2458 Z-11.6814
G01 X79.3689 Y50.1626 Z-11.7269
G01 X79.4447 Y50.0738 Z-11.7723
G01 X79.5140 Y49.9798 Z-11.8178
G01 X79.5765 Y49.8811 Z-11.8632
G01 X79.6317 Y49.7782 Z-11.9087
G01 X79.6795 Y49.6716 Z-11.9541
G01 X79.7195 Y49.5618 Z-11.9996
G01 X79.7516 Y49.4495 Z-12.0450
G01 X79.7756 Y49.3351 Z-12.0905
G01 X79.7914 Y49.2193 Z-12.1359
G01 X79.7989 Y49.1027 Z-12.1814
G01 X79.7981 Y48.9859 Z-12.2269
G01 X79.7889 Y48.8694 Z-12.2723
G01 X79.7715 Y48.7538 Z-12.3178
G01 X79.7458 Y48.6398 Z-12.3633
G01 X79.7121 Y48.5279 Z-12.4087
G01 X79.6705 Y48.4187 Z-12.4542
G01 X79.6212 Y48.3128 Z-12.4997
G01 X79.5645 Y48.2106 Z-12.5451
G01 X79.5006 Y48.1128 Z-12.5906
G01 X79.4299 Y48.0197 Z-12.6361
G01 X79.3527 Y47.9320 Z-12.6815
G01 X79.2695 Y47.8499 Z-12.7270
G01 X79.1807 Y47.7740 Z-12.7725
G01 X79.0866 Y47.7047 Z-12.8179
G01 X78.9879 Y47.6422 Z-12.8634
G01 X78.8849 Y47.5869 Z-12.9088
G01 X78.7783 Y47.5392 Z-12.9543
G01 X78.6685 Y47.4991 Z-12.9998
G01 X78.5561 Y47.4670 Z-13.0452
G01 X78.4418 Y47.4430 Z-13.0907
G01 X78.3260 Y47.4272 Z-13.1362
G01 X78.2094 Y47.4197 Z-13.1816
G01 X78.0925 Y47.4205 Z-13.2271
G01 X77.9760 Y47.4297 Z-13.2726
G01 X77.8605 Y47.4471 Z-13.3180
G01 X77.7465 Y47.4728 Z-13.3635
G01 X77.6346 Y47.5065 Z-13.4090
G01 X77.5254 Y47.5481 Z-13.4544
G01 X77.4195 Y47.5974 Z-13.4999
G01 X77.3173 Y47.6541 Z-13.5454
G01 X77.2194 Y47.7180 Z-13.5908
G01 X77.1264 Y47.7887 Z-13.6363
G01 X77.0386 Y47.8659 Z-13.6817
G01 X76.9566 Y47.9491 Z-13.7272
G01 X76.8807 Y48.0379 Z-13.7727
G01 X76.8113 Y48.1320 Z-13.8181
G01 X76.7489 Y48.2307 Z-13.8636
G01 X76.6936 Y48.3337 Z-13.9091
G01 X76.6458 Y48.4403 Z-13.9545
G01 X76.6058 Y48.5501 Z-14.0000
G01 X76.6052 Y48.5523 F3600
G01 X76.5732 Y48.6646
G01 X76.5494 Y48.7790
G01 X76.5337 Y48.8947
G01 X76.5264 Y49.0113
G01 X76.5273 Y49.1281
G01 X76.5366 Y49.2445
G01 X76.5542 Y49.3600
G01 X76.5800 Y49.4739
G01 X76.6138 Y49.5857
G01 X76.6555 Y49.6948
G01 X76.7049 Y49.8007
G01 X76.7617 Y49.9027
G01 X76.8257 Y50.0005
G01 X76.8964 Y50.0934
G01 X76.9736 Y50.1811
G01 X77.0569 Y50.2630
G01 X77.1457 Y50.3388
G01 X77.2398 Y50.4080
G01 X77.3386 Y50.4704
G01 X77.4415 Y50.5256
G01 X77.5481 Y50.5732
G01 X77.6579 Y50.6132
G01 X77.7702 Y50.6452
G01 X77.8845 Y50.6692
G01 X78.0003 Y50.6849
G01 X78.1168 Y50.6923
G01 X78.2336 Y50.6914
G01 X78.3501 Y50.6822
G01 X78.4656 Y50.6647
G01 X78.5795 Y50.6390
G01 X78.6913 Y50.6053
G01 X78.8005 Y50.5636
G01 X78.9063 Y50.5143
G01 X79.0084 Y50.4576
G01 X79.1062 Y50.3937
G01 X79.1992 Y50.3230
G01 X79.2869 Y50.2458
G01 X79.3689 Y50.1626
G01 X79.4447 Y50.0738
G01 X79.5140 Y49.9798
G01 X79.5765 Y49.8811
G01 X79.6317 Y49.7782
G01 X79.6795 Y49.6716
G01 X79.7195 Y49.5618
G01 X79.7516 Y49.4495
G01 X79.7756 Y49.3351
G01 X79.7914 Y49.2193
G01 X79.7989 Y49.1027
G01 X79.7981 Y48.9859
G01 X79.7889 Y48.8694
G01 X79.7715 Y48.7538
G01 X79.7458 Y48.6398
G01 X79.7121 Y48.5279
G01 X79.6705 Y48.4187
G01 X79.6212 Y48.3128
G01 X79.5645 Y48.2106
G01 X79.5006 Y48.1128
G01 X79.4299 Y48.0197
G01 X79.3527 Y47.9320
G01 X79.2695 Y47.8499
G01 X79.1807 Y47.7740
G01 X79.0866 Y47.7047
G01 X78.9879 Y47.6422
G01 X78.8849 Y47.5869
G01 X78.7783 Y47.5392
G01 X78.6685 Y47.4991
G01 X78.5561 Y47.4670
G01 X78.4418 Y47.4430
G01 X78.3260 Y47.4272
G01 X78.2094 Y47.4197
G01 X78.0925 Y47.4205
G01 X77.9760 Y47.4297
G01 X77.8605 Y47.4471
G01 X77.7465 Y47.4728
G01 X77.6346 Y47.5065
G01 X77.5254 Y47.5481
G01 X77.4195 Y47.5974
G01 X77.3173 Y47.6541
G01 X77.2194 Y47.7180
G01 X77.1264 Y47.7887
G01 X77.0386 Y47.8659
G01 X76.9566 Y47.9491
G01 X76.8807 Y48.0379
G01 X76.8113 Y48.1320
G01 X76.7489 Y48.2307
G01 X76.6936 Y48.3337
G01 X76.6458 Y48.4403
G01 X76.6058 Y48.5501
G00 Z5.0000

(Nr. 5 Ausschnitt bearbeiten: Ausschnitt 151)
G00 X86.2844 Y52.3065 Z5.0000
G00 Z0.5000
G01 Z0.0000 F1800
G01 X86.2451 Y52.4044 Z-0.0595
G01 X86.2133 Y52.5050 Z-0.1190
G01 X86.1891 Y52.6076 Z-0.1786
G01 X86.1726 Y52.7118 Z-0.2381
G01 X86.1639 Y52.8169 Z-0.2976
G01 X86.1631 Y52.9223 Z-0.3571
G01 X86.1702 Y53.0276 Z-0.4167
G01 X86.1851 Y53.1320 Z-0.4762
G01 X86.2078 Y53.2350 Z-0.5357
G01 X86.2382 Y53.3360 Z-0.5952
G01 X86.2760 Y53.4344 Z-0.6548
G01 X86.3210 Y53.5298 Z-0.7143
G01 X86.3731 Y53.6215 Z-0.7738
G01 X86.4318 Y53.7091 Z-0.8333
G01 X86.4970 Y53.7921 Z-0.8929
G01 X86.5681 Y53.8699 Z-0.9524
G01 X86.6449 Y53.9422 Z-1.0119
G01 X86.7268 Y54.0086 Z-1.0714
G01 X86.8135 Y54.0687 Z-1.1310
G01 X86.9045 Y54.1221 Z-1.1905
G01 X86.9992 Y54.1686 Z-1.2500
G01 X87.0970 Y54.2078 Z-1.3095
G01 X87.1976 Y54.2397 Z-1.3690
G01 X87.3002 Y54.2639 Z-1.4286
G01 X87.4044 Y54.2804 Z-1.4881
G01 X87.5095 Y54.2891 Z-1.5476
G01 X87.6150 Y54.2899 Z-1.6071
G01 X87.7202 Y54.2828 Z-1.6667
G01 X87.8246 Y54.2678 Z-1.7262
G01 X87.9276 Y54.2451 Z-1.7857
G01 X88.0286 Y54.2148 Z-1.8452
G01 X88.1271 Y54.1770 Z-1.9048
G01 X88.2224 Y54.1320 Z-1.9643
G01 X88.3142 Y54.0799 Z-2.0238
G01 X88.4018 Y54.0211 Z-2.0833
G01 X88.4847 Y53.9560 Z-2.1429
G01 X88.5625 Y53.8849 Z-2.2024
G01 X88.6349 Y53.8081 Z-2.2619
G01 X88.7012 Y53.7261 Z-2.3214
G01 X88.7613 Y53.6394 Z-2.3810
G01 X88.8147 Y53.5485 Z-2.4405
G01 X88.8612 Y53.4538 Z-2.5000
G01 X88.9004 Y53.3559 Z-2.5595
G01 X88.9323 Y53.2554 Z-2.6190
G01 X88.9565 Y53.1527 Z-2.6786
G01 X88.9730 Y53.0486 Z-2.7381
G01 X88.9817 Y52.9434 Z-2.7976
G01 X88.9825 Y52.8380 Z-2.8571
G01 X88.9754 Y52.7328 Z-2.9167
G01 X88.9605 Y52.6284 Z-2.9762
G01 X88.9378 Y52.5254 Z-3.0357
G01 X88.9074 Y52.4243 Z-3.0952
G01 X88.8696 Y52.3259 Z-3.1548
G01 X88.8246 Y52.2305 Z-3.2143
G01 X88.7725 Y52.1388 Z-3.2738
G01 X88.7138 Y52.0512 Z-3.3333
G01 X88.6486 Y51.9683 Z-3.3929
G01 X88.5775 Y51.8904 Z-3.4524
G01 X88.5007 Y51.8181 Z-3.5119
G01 X88.4187 Y51.7517 Z-3.5714
G01 X88.3321 Y51.6917 Z-3.6310
G01 X88.2411 Y51.6382 Z-3.6905
G01 X88.1464 Y51.5918 Z-3.7500
G01 X88.0485 Y51.5525 Z-3.8095
G01 X87.9480 Y51.5207 Z-3.8690
G01 X87.8454 Y51.4964 Z-3.9286
G01 X87.7412 Y51.4799 Z-3.9881
G01 X87.6361 Y51.4713 Z-4.0476
G01 X87.5306 Y51.4705 Z-4.1071
G01 X87.4254 Y51.4776 Z-4.1667
G01 X87.3210 Y51.4925 Z-4.2262
G01 X87.2180 Y51.5152 Z-4.2857
G01 X87.1170 Y51.5455 Z-4.3452
G01 X87.0185 Y51.5833 Z-4.4048
G01 X86.9231 Y51.6284 Z-4.4643
G01 X86.8314 Y51.6804 Z-4.5238
G01 X86.7438 Y51.7392 Z-4.5833
G01 X86.6609 Y51.8043 Z-4.6429
G01 X86.5830 Y51.8755 Z-4.7024
G01 X86.5107 Y51.9522 Z-4.7619
G01 X86.4444 Y52.0342 Z-4.8214
G01 X86.3843 Y52.1209 Z-4.8810
G01 X86.3309 Y52.2118 Z-4.9405
G01 X86.2844 Y52.3065 Z-5.0000
G01 X86.2451 Y52.4044 Z-5.0595
G01 X86.2133 Y52.5050 Z-5.1190
G01 X86.1891 Y52.6076 Z-5.1786
G01 X86.1726 Y52.7118 Z-5.2381
G01 X86.1639 Y52.8169 Z-5.2976
G01 X86.1631 Y52.9223 Z-5.3571
G01 X86.1702 Y53.0276 Z-5.4167
G01 X86.1851 Y53.1320 Z-5.4762
G01 X86.2078 Y53.2350 Z-5.5357
G01 X86.2382 Y53.3360 Z-5.5952
G01 X86.2760 Y53.4344 Z-5.6548
G01 X86.3210 Y53.5298 Z-5.7143
G01 X86.3731 Y53.6215 Z-5.7738
G01 X86.4318 Y53.7091 Z-5.8333
G01 X86.4970 Y53.7921 Z-5.8929
G01 X86.5681 Y53.8699 Z-5.9524
G01 X86.6449 Y53.9422 Z-6.0119
G01 X86.7268 Y54.0086 Z-6.0714
G01 X86.8135 Y54.0687 Z-6.1310
G01 X86.9045 Y54.1221 Z-6.1905
G01 X86.9992 Y54.1686 Z-6.2500
G01 X87.0970 Y54.2078 Z-6.3095
G01 X87.1976 Y54.2397 Z-6.3690
G01 X87.3002 Y54.2639 Z-6.4286
G01 X87.4044 Y54.2804 Z-6.4881
G01 X87.5095 Y54.2891 Z-6.5476
G01 X87.6150 Y54.2899 Z-6.6071
G01 X87.7202 Y54.2828 Z-6.6667
G01 X87.8246 Y54.2678 Z-6.7262
G01 X87.9276 Y54.2451 Z-6.7857
G01 X88.0286 Y54.2148 Z-6.8452
G01 X88.1271 Y54.1770 Z-6.9048
G01 X88.2224 Y54.1320 Z-6.9643
G01 X88.3142 Y54.0799 Z-7.0238
G01 X88.4018 Y54.0211 Z-7.0833
G01 X88.4847 Y53.9560 Z-7.1429
G01 X88.5625 Y53.8849 Z-7.2024
G01 X88.6349 Y53.8081 Z-7.2619
G01 X88.7012 Y53.7261 Z-7.3214
G01 X88.7613 Y53.6394 Z-7.3810
G01 X88.8147 Y53.5485 Z-7.4405
G01 X88.8612 Y53.4538 Z-7.5000
G01 X88.9004 Y53.3559 Z-7.5595
G01 X88.9323 Y53.2554 Z-7.6190
G01 X88.9565 Y53.1527 Z-7.6786
G01 X88.9730 Y53.0486 Z-7.7381
G01 X88.9817 Y52.9434 Z-7.7976
G01 X88.9825 Y52.8380 Z-7.8571
G01 X88.9754 Y52.7328 Z-7.9167
G01 X88.9605 Y52.6284 Z-7.9762
G01 X88.9378 Y52.5254 Z-8.0357
G01 X88.9074 Y52.4243 Z-8.0952
G01 X88.8696 Y52.3259 Z-8.1548
G01 X88.8246 Y52.2305 Z-8.2143
G01 X88.7725 Y52.1388 Z-8.2738
G01 X88.7138 Y52.0512 Z-8.3333
G01 X88.6486 Y51.9683 Z-8.3929
G01 X88.5775 Y51.8904 Z-8.4524
G01 X88.5007 Y51.8181 Z-8.5119
G01 X88.4187 Y51.7517 Z-8.5714
G01 X88.3321 Y51.6917 Z-8.6310
G01 X88.2411 Y51.6382 Z-8.6905
G01 X88.1464 Y51.5918 Z-8.7500
G01 X88.0485 Y51.5525 Z-8.8095
G01 X87.9480 Y51.5207 Z-8.8690
G01 X87.8454 Y51.4964 Z-8.9286
G01 X87.7412 Y51.4799 Z-8.9881
G01 X87.6361 Y51.4713 Z-9.0476
G01 X87.5306 Y51.4705 Z-9.1071
G01 X87.4254 Y51.4776 Z-9.1667
G01 X87.3210 Y51.4925 Z-9.2262
G01 X87.2180 Y51.5152 Z-9.2857
G01 X87.1170 Y51.5455 Z-9.3452
G01 X87.0185 Y51.5833 Z-9.4048
G01 X86.9231 Y51.6284 Z-9.4643
G01 X86.8314 Y51.6804 Z-9.5238
G01 X86.7438 Y51.7392 Z-9.5833
G01 X86.6609 Y51.8043 Z-9.6429
G01 X86.5830 Y51.8755 Z-9.7024
G01 X86.5107 Y51.9522 Z-9.7619
G01 X86.4444 Y52.0342 Z-9.8214
G01 X86.3843 Y52.1209 Z-9.8810
G01 X86.3309 Y52.2118 Z-9.9405
G01 X86.2844 Y52.3065 Z-10.0000
G01 X86.2451 Y52.4044 Z-10.0476
G01 X86.2133 Y52.5050 Z-10.0952
G01 X86.1891 Y52.6076 Z-10.1429
G01 X86.1726 Y52.7118 Z-10.1905
G01 X86.1639 Y52.8169 Z-10.2381
G01 X86.1631 Y52.9223 Z-10.2857
G01 X86.1702 Y53.0276 Z-10.3333
G01 X86.1851 Y53.1320 Z-10.3810
G01 X86.2078 Y53.2350 Z-10.4286
G01 X86.2382 Y53.3360 Z-10.4762
G01 X86.2760 Y53.4344 Z-10.5238
G01 X86.3210 Y53.5298 Z-10.5714
G01 X86.3731 Y53.6215 Z-10.6190
G01 X86.4318 Y53.7091 Z-10.6667
G01 X86.4970 Y53.7921 Z-10.7143
G01 X86.5681 Y53.8699 Z-10.7619
G01 X86.6449 Y53.9422 Z-10.8095
G01 X86.7268 Y54.0086 Z-10.8571
G01 X86.8135 Y54.0687 Z-10.9048
G01 X86.9045 Y54.1221 Z-10.9524
G01 X86.9992 Y54.1686 Z-11.0000
G01 X87.0970 Y54.2078 Z-11.0476
G01 X87.1976 Y54.2397 Z-11.0952
G01 X87.3002 Y54.2639 Z-11.1429
G01 X87.4044 Y54.2804 Z-11.1905
G01 X87.5095 Y54.2891 Z-11.2381
G01 X87.6150 Y54.2899 Z-11.2857
G01 X87.7202 Y54.2828 Z-11.3333
G01 X87.8246 Y54.2678 Z-11.3810
G01 X87.9276 Y54.2451 Z-11.4286
G01 X88.0286 Y54.2148 Z-11.4762
G01 X88.1271 Y54.1770 Z-11.5238
G01 X88.2224 Y54.1320 Z-11.5714
G01 X88.3142 Y54.0799 Z-11.6190
G01 X88.4018 Y54.0211 Z-11.6667
G01 X88.4847 Y53.9560 Z-11.7143
G01 X88.5625 Y53.8849 Z-11.7619
G01 X88.6349 Y53.8081 Z-11.8095
G01 X88.7012 Y53.7261 Z-11.8571
G01 X88.7613 Y53.6394 Z-11.9048
G01 X88.8147 Y53.5485 Z-11.9524
G01 X88.8612 Y53.4538 Z-12.0000
G01 X88.9004 Y53.3559 Z-12.0476
G01 X88.9323 Y53.2554 Z-12.0952
G01 X88.9565 Y53.1527 Z-12.1429
G01 X88.9730 Y53.0486 Z-12.1905
G01 X88.9817 Y52.9434 Z-12.2381
G01 X88.9825 Y52.8380 Z-12.2857
G01 X88.9754 Y52.7328 Z-12.3333
G01 X88.9605 Y52.6284 Z-12.3810
G01 X88.9378 Y52.5254 Z-12.4286
G01 X88.9074 Y52.4243 Z-12.4762
G01 X88.8696 Y52.3259 Z-12.5238
G01 X88.8246 Y52.2305 Z-12.5714
G01 X88.7725 Y52.1388 Z-12.6190
G01 X88.7138 Y52.0512 Z-12.6667
G01 X88.6486 Y51.9683 Z-12.7143
G01 X88.5775 Y51.8904 Z-12.7619
G01 X88.5007 Y51.8181 Z-12.8095
G01 X88.4187 Y51.7517 Z-12.8571
G01 X88.3321 Y51.6917 Z-12.9048
G01 X88.2411 Y51.6382 Z-12.9524
G01 X88.1464 Y51.5918 Z-13.0000
G01 X88.0485 Y51.5525 Z-13.0476
G01 X87.9480 Y51.5207 Z-13.0952
G01 X87.8454 Y51.4964 Z-13.1429
G01 X87.7412 Y51.4799 Z-13.1905
G01 X87.6361 Y51.4713 Z-13.2381
G01 X87.5306 Y51.4705 Z-13.2857
G01 X87.4254 Y51.4776 Z-13.3333
G01 X87.3210 Y51.4925 Z-13.3810
G01 X87.2180 Y51.5152 Z-13.4286
G01 X87.1170 Y51.5455 Z-13.4762
G01 X87.0185 Y51.5833 Z-13.5238
G01 X86.9231 Y51.6284 Z-13.5714
G01 X86.8314 Y51.6804 Z-13.6190
G01 X86.7438 Y51.7392 Z-13.6667
G01 X86.6609 Y51.8043 Z-13.7143
G01 X86.5830 Y51.8755 Z-13.7619
G01 X86.5107 Y51.9522 Z-13.8095
G01 X86.4444 Y52.0342 Z-13.8571
G01 X86.3843 Y52.1209 Z-13.9048
G01 X86.3309 Y52.2118 Z-13.9524
G01 X86.2844 Y52.3065 Z-14.0000
G01 X86.2451 Y52.4044 F3600
G01 X86.2133 Y52.5050
G01 X86.1891 Y52.6076
G01 X86.1726 Y52.7118
G01 X86.1639 Y52.8169
G01 X86.1631 Y52.9223
G01 X86.1702 Y53.0276
G01 X86.1851 Y53.1320
G01 X86.2078 Y53.2350
G01 X86.2382 Y53.3360
G01 X86.2760 Y53.4344
G01 X86.3210 Y53.5298
G01 X86.3731 Y53.6215
G01 X86.4318 Y53.7091
G01 X86.4970 Y53.7921
G01 X86.5681 Y53.8699
G01 X86.6449 Y53.9422
G01 X86.7268 Y54.0086
G01 X86.8135 Y54.0687
G01 X86.9045 Y54.1221
G01 X86.9992 Y54.1686
G01 X87.0970 Y54.2078
G01 X87.1976 Y54.2397
G01 X87.3002 Y54.2639
G01 X87.4044 Y54.2804
G01 X87.5095 Y54.2891
G01 X87.6150 Y54.2899
G01 X87.7202 Y54.2828
G01 X87.8246 Y54.2678
G01 X87.9276 Y54.2451
G01 X88.0286 Y54.2148
G01 X88.1271 Y54.1770
G01 X88.2224 Y54.1320
G01 X88.3142 Y54.0799
G01 X88.4018 Y54.0211
G01 X88.4847 Y53.9560
G01 X88.5625 Y53.8849
G01 X88.6349 Y53.8081
G01 X88.7012 Y53.7261
G01 X88.7613 Y53.6394
G01 X88.8147 Y53.5485
G01 X88.8612 Y53.4538
G01 X88.9004 Y53.3559
G01 X88.9323 Y53.2554
G01 X88.9565 Y53.1527
G01 X88.9730 Y53.0486
G01 X88.9817 Y52.9434
G01 X88.9825 Y52.8380
G01 X88.9754 Y52.7328
G01 X88.9605 Y52.6284
G01 X88.9378 Y52.5254
G01 X88.9074 Y52.4243
G01 X88.8696 Y52.3259
G01 X88.8246 Y52.2305
G01 X88.7725 Y52.1388
G01 X88.7138 Y52.0512
G01 X88.6486 Y51.9683
G01 X88.5775 Y51.8904
G01 X88.5007 Y51.8181
G01 X88.4187 Y51.7517
G01 X88.3321 Y51.6917
G01 X88.2411 Y51.6382
G01 X88.1464 Y51.5918
G01 X88.0485 Y51.5525
G01 X87.9480 Y51.5207
G01 X87.8454 Y51.4964
G01 X87.7412 Y51.4799
G01 X87.6361 Y51.4713
G01 X87.5306 Y51.4705
G01 X87.4254 Y51.4776
G01 X87.3210 Y51.4925
G01 X87.2180 Y51.5152
G01 X87.1170 Y51.5455
G01 X87.0185 Y51.5833
G01 X86.9231 Y51.6284
G01 X86.8314 Y51.6804
G01 X86.7438 Y51.7392
G01 X86.6609 Y51.8043
G01 X86.5830 Y51.8755
G01 X86.5107 Y51.9522
G01 X86.4444 Y52.0342
G01 X86.3843 Y52.1209
G01 X86.3309 Y52.2118
G01 X86.2844 Y52.3065
G00 Z5.0000

(Nr. 6 Ausschnitt bearbeiten: Ausschnitt 117)
G00 X95.3860 Y57.9851 Z5.0000
G00 Z0.5000
G01 Z0.0000 F1800
G01 X95.3349 Y58.0750 Z-0.0694
G01 X95.2918 Y58.1690 Z-0.1389
G01 X95.2570 Y58.2664 Z-0.2083
G01 X95.2309 Y58.3664 Z-0.2778
G01 X95.2135 Y58.4683 Z-0.3472
G01 X95.2052 Y58.5714 Z-0.4167
G01 X95.2058 Y58.6748 Z-0.4861
G01 X95.2155 Y58.7777 Z-0.5556
G01 X95.2341 Y58.8794 Z-0.6250
G01 X95.2614 Y58.9791 Z-0.6944
G01 X95.2974 Y59.0761 Z-0.7639
G01 X95.3417 Y59.1695 Z-0.8333
G01 X95.3939 Y59.2587 Z-0.9028
G01 X95.4538 Y59.3431 Z-0.9722
G01 X95.5207 Y59.4219 Z-1.0417
G01 X95.5943 Y59.4945 Z-1.1111
G01 X95.6739 Y59.5605 Z-1.1806
G01 X95.7590 Y59.6193 Z-1.2500
G01 X95.8488 Y59.6704 Z-1.3194
G01 X95.9428 Y59.7135 Z-1.3889
G01 X96.0402 Y59.7483 Z-1.4583
G01 X96.1402 Y59.7744 Z-1.5278
G01 X96.2421 Y59.7917 Z-1.5972
G01 X96.3452 Y59.8001 Z-1.6667
G01 X96.4486 Y59.7995 Z-1.7361
G01 X96.5515 Y59.7898 Z-1.8056
G01 X96.6533 Y59.7712 Z-1.8750
G01 X96.7530 Y59.7439 Z-1.9444
G01 X96.8499 Y59.7079 Z-2.0139
G01 X96.9433 Y59.6636 Z-2.0833
G01 X97.0326 Y59.6114 Z-2.1528
G01 X97.1169 Y59.5515 Z-2.2222
G01 X97.1957 Y59.4846 Z-2.2917
G01 X97.2683 Y59.4110 Z-2.3611
G01 X97.3343 Y59.3314 Z-2.4306
G01 X97.3931 Y59.2463 Z-2.5000
G01 X97.4442 Y59.1565 Z-2.5694
G01 X97.4873 Y59.0625 Z-2.6389
G01 X97.5221 Y58.9651 Z-2.7083
G01 X97.5482 Y58.8651 Z-2.7778
G01 X97.5656 Y58.7631 Z-2.8472
G01 X97.5739 Y58.6601 Z-2.9167
G01 X97.5733 Y58.5567 Z-2.9861
G01 X97.5636 Y58.4537 Z-3.0556
G01 X97.5450 Y58.3520 Z-3.1250
G01 X97.5177 Y58.2523 Z-3.1944
G01 X97.4817 Y58.1554 Z-3.2639
G01 X97.4374 Y58.0619 Z-3.3333
G01 X97.3852 Y57.9727 Z-3.4028
G01 X97.3253 Y57.8884 Z-3.4722
G01 X97.2584 Y57.8096 Z-3.5417
G01 X97.1848 Y57.7370 Z-3.6111
G01 X97.1052 Y57.6710 Z-3.6806
G01 X97.0201 Y57.6122 Z-3.7500
G01 X96.9303 Y57.5611 Z-3.8194
G01 X96.8363 Y57.5180 Z-3.8889
G01 X96.7389 Y57.4832 Z-3.9583
G01 X96.6389 Y57.4571 Z-4.0278
G01 X96.5370 Y57.4397 Z-4.0972
G01 X96.4339 Y57.4314 Z-4.1667
G01 X96.3305 Y57.4320 Z-4.2361
G01 X96.2276 Y57.4416 Z-4.3056
G01 X96.1258 Y57.4602 Z-4.3750
G01 X96.0261 Y57.4876 Z-4.4444
G01 X95.9292 Y57.5236 Z-4.5139
G01 X95.8358 Y57.5679 Z-4.5833
G01 X95.7465 Y57.6201 Z-4.6528
G01 X95.6622 Y57.6799 Z-4.7222
G01 X95.5834 Y57.7469 Z-4.7917
G01 X95.5108 Y57.8205 Z-4.8611
G01 X95.4448 Y57.9001 Z-4.9306
G01 X95.3860 Y57.9851 Z-5.0000
G01 X95.3349 Y58.0750 Z-5.0694
G01 X95.2918 Y58.1690 Z-5.1389
G01 X95.2570 Y58.2664 Z-5.2083
G01 X95.2309 Y58.3664 Z-5.2778
G01 X95.2135 Y58.4683 Z-5.3472
G01 X95.2052 Y58.5714 Z-5.4167
G01 X95.2058 Y58.6748 Z-5.4861
G01 X95.2155 Y58.7777 Z-5.5556
G01 X95.2341 Y58.8794 Z-5.6250
G01 X95.2614 Y58.9791 Z-5.6944
G01 X95.2974 Y59.0761 Z-5.7639
G01 X95.3417 Y59.1695 Z-5.8333
G01 X95.3939 Y59.2587 Z-5.9028
G01 X95.4538 Y59.3431 Z-5.9722
G01 X95.5207 Y59.4219 Z-6.0417
G01 X95.5943 Y59.4945 Z-6.1111
G01 X95.6739 Y59.5605 Z-6.1806
G01 X95.7590 Y59.6193 Z-6.2500
G01 X95.8488 Y59.6704 Z-6.3194
G01 X95.9428 Y59.7135 Z-6.3889
G01 X96.0402 Y59.7483 Z-6.4583
G01 X96.1402 Y59.7744 Z-6.5278
G01 X96.2421 Y59.7917 Z-6.5972
G01 X96.3452 Y59.8001 Z-6.6667
G01 X96.4486 Y59.7995 Z-6.7361
G01 X96.5515 Y59.7898 Z-6.8056
G01 X96.6533 Y59.7712 Z-6.8750
G01 X96.7530 Y59.7439 Z-6.9444
G01 X96.8499 Y59.7079 Z-7.0139
G01 X96.9433 Y59.6636 Z-7.0833
G01 X97.0326 Y59.6114 Z-7.1528
G01 X97.1169 Y59.5515 Z-7.2222
G01 X97.1957 Y59.4846 Z-7.2917
G01 X97.2683 Y59.4110 Z-7.3611
G01 X97.3343 Y59.3314 Z-7.4306
G01 X97.3931 Y59.2463 Z-7.5000
G01 X97.4442 Y59.1565 Z-7.5694
G01 X97.4873 Y59.0625 Z-7.6389
G01 X97.5221 Y58.9651 Z-7.7083
G01 X97.5482 Y58.8651 Z-7.7778
G01 X97.5656 Y58.7631 Z-7.8472
G01 X97.5739 Y58.6601 Z-7.9167
G01 X97.5733 Y58.5567 Z-7.9861
G01 X97.5636 Y58.4537 Z-8.0556
G01 X97.5450 Y58.3520 Z-8.1250
G01 X97.5177 Y58.2523 Z-8.1944
G01 X97.4817 Y58.1554 Z-8.2639
G01 X97.4374 Y58.0619 Z-8.3333
G01 X97.3852 Y57.9727 Z-8.4028
G01 X97.3253 Y57.8884 Z-8.4722
G01 X97.2584 Y57.8096 Z-8.5417
G01 X97.1848 Y57.7370 Z-8.6111
G01 X97.1052 Y57.6710 Z-8.6806
G01 X97.0201 Y57.6122 Z-8.7500
G01 X96.9303 Y57.5611 Z-8.8194
G01 X96.8363 Y57.5180 Z-8.8889
G01 X96.7389 Y57.4832 Z-8.9583
G01 X96.6389 Y57.4571 Z-9.0278
G01 X96.5370 Y57.4397 Z-9.0972
G01 X96.4339 Y57.4314 Z-9.1667
G01 X96.3305 Y57.4320 Z-9.2361
G01 X96.2276 Y57.4416 Z-9.3056
G01 X96.1258 Y57.4602 Z-9.3750
G01 X96.0261 Y57.4876 Z-9.4444
G01 X95.9292 Y57.5236 Z-9.5139
G01 X95.8358 Y57.5679 Z-9.5833
G01 X95.7465 Y57.6201 Z-9.6528
G01 X95.6622 Y57.6799 Z-9.7222
G01 X95.5834 Y57.7469 Z-9.7917
G01 X95.5108 Y57.8205 Z-9.8611
G01 X95.4448 Y57.9001 Z-9.9306
G01 X95.3860 Y57.9851 Z-10.0000
G01 X95.3349 Y58.0750 Z-10.0556
G01 X95.2918 Y58.1690 Z-10.1111
G01 X95.2570 Y58.2664 Z-10.1667
G01 X95.2309 Y58.3664 Z-10.2222
G01 X95.2135 Y58.4683 Z-10.2778
G01 X95.2052 Y58.5714 Z-10.3333
G01 X95.2058 Y58.6748 Z-10.3889
G01 X95.2155 Y58.7777 Z-10.4444
G01 X95.2341 Y58.8794 Z-10.5000
G01 X95.2614 Y58.9791 Z-10.5556
G01 X95.2974 Y59.0761 Z-10.6111
G01 X95.3417 Y59.1695 Z-10.6667
G01 X95.3939 Y59.2587 Z-10.7222
G01 X95.4538 Y59.3431 Z-10.7778
G01 X95.5207 Y59.4219 Z-10.8333
G01 X95.5943 Y59.4945 Z-10.8889
G01 X95.6739 Y59.5605 Z-10.9444
G01 X95.7590 Y59.6193 Z-11.0000
G01 X95.8488 Y59.6704 Z-11.0556
G01 X95.9428 Y59.7135 Z-11.1111
G01 X96.0402 Y59.7483 Z-11.1667
G01 X96.1402 Y59.7744 Z-11.2222
G01 X96.2421 Y59.7917 Z-11.2778
G01 X96.3452 Y59.8001 Z-11.3333
G01 X96.4486 Y59.7995 Z-11.3889
G01 X96.5515 Y59.7898 Z-11.4444
G01 X96.6533 Y59.7712 Z-11.5000
G01 X96.7530 Y59.7439 Z-11.5556
G01 X96.8499 Y59.7079 Z-11.6111
G01 X96.9433 Y59.6636 Z-11.6667
G01 X97.0326 Y59.6114 Z-11.7222
G01 X97.1169 Y59.5515 Z-11.7778
G01 X97.1957 Y59.4846 Z-11.8333
G01 X97.2683 Y59.4110 Z-11.8889
G01 X97.3343 Y59.3314 Z-11.9444
G01 X97.3931 Y59.2463 Z-12.0000
G01 X97.4442 Y59.1565 Z-12.0556
G01 X97.4873 Y59.0625 Z-12.1111
G01 X97.5221 Y58.9651 Z-12.1667
G01 X97.5482 Y58.8651 Z-12.2222
G01 X97.5656 Y58.7631 Z-12.2778
G01 X97.5739 Y58.6601 Z-12.3333
G01 X97.5733 Y58.5567 Z-12.3889
G01 X97.5636 Y58.4537 Z-12.4444
G01 X97.5450 Y58.3520 Z-12.5000
G01 X97.5177 Y58.2523 Z-12.5556
G01 X97.4817 Y58.1554 Z-12.6111
G01 X97.4374 Y58.0619 Z-12.6667
G01 X97.3852 Y57.9727 Z-12.7222
G01 X97.3253 Y57.8884 Z-12.7778
G01 X97.2584 Y57.8096 Z-12.8333
G01 X97.1848 Y57.7370 Z-12.8889
G01 X97.1052 Y57.6710 Z-12.9444
G01 X97.0201 Y57.6122 Z-13.0000
G01 X96.9303 Y57.5611 Z-13.0556
G01 X96.8363 Y57.5180 Z-13.1111
G01 X96.7389 Y57.4832 Z-13.1667
G01 X96.6389 Y57.4571 Z-13.2222
G01 X96.5370 Y57.4397 Z-13.2778
G01 X96.4339 Y57.4314 Z-13.3333
G01 X96.3305 Y57.4320 Z-13.3889
G01 X96.2276 Y57.4416 Z-13.4444
G01 X96.1258 Y57.4602 Z-13.5000
G01 X96.0261 Y57.4876 Z-13.5556
G01 X95.9292 Y57.5236 Z-13.6111
G01 X95.8358 Y57.5679 Z-13.6667
G01 X95.7465 Y57.6201 Z-13.7222
G01 X95.6622 Y57.6799 Z-13.7778
G01 X95.5834 Y57.7469 Z-13.8333
G01 X95.5108 Y57.8205 Z-13.8889
G01 X95.4448 Y57.9001 Z-13.9444
G01 X95.3860 Y57.9851 Z-14.0000
G01 X95.3349 Y58.0750 F3600
G01 X95.2918 Y58.1690
G01 X95.2570 Y58.2664
G01 X95.2309 Y58.3664
G01 X95.2135 Y58.4683
G01 X95.2052 Y58.5714
G01 X95.2058 Y58.6748
G01 X95.2155 Y58.7777
G01 X95.2341 Y58.8794
G01 X95.2614 Y58.9791
G01 X95.2974 Y59.0761
G01 X95.3417 Y59.1695
G01 X95.3939 Y59.2587
G01 X95.4538 Y59.3431
G01 X95.5207 Y59.4219
G01 X95.5943 Y59.4945
G01 X95.6739 Y59.5605
G01 X95.7590 Y59.6193
G01 X95.8488 Y59.6704
G01 X95.9428 Y59.7135
G01 X96.0402 Y59.7483
G01 X96.1402 Y59.7744
G01 X96.2421 Y59.7917
G01 X96.3452 Y59.8001
G01 X96.4486 Y59.7995
G01 X96.5515 Y59.7898
G01 X96.6533 Y59.7712
G01 X96.7530 Y59.7439
G01 X96.8499 Y59.7079
G01 X96.9433 Y59.6636
G01 X97.0326 Y59.6114
G01 X97.1169 Y59.5515
G01 X97.1957 Y59.4846
G01 X97.2683 Y59.4110
G01 X97.3343 Y59.3314
G01 X97.3931 Y59.2463
G01 X97.4442 Y59.1565
G01 X97.4873 Y59.0625
G01 X97.5221 Y58.9651
G01 X97.5482 Y58.8651
G01 X97.5656 Y58.7631
G01 X97.5739 Y58.6601
G01 X97.5733 Y58.5567
G01 X97.5636 Y58.4537
G01 X97.5450 Y58.3520
G01 X97.5177 Y58.2523
G01 X97.4817 Y58.1554
G01 X97.4374 Y58.0619
G01 X97.3852 Y57.9727
G01 X97.3253 Y57.8884
G01 X97.2584 Y57.8096
G01 X97.1848 Y57.7370
G01 X97.1052 Y57.6710
G01 X97.0201 Y57.6122
G01 X96.9303 Y57.5611
G01 X96.8363 Y57.5180
G01 X96.7389 Y57.4832
G01 X96.6389 Y57.4571
G01 X96.5370 Y57.4397
G01 X96.4339 Y57.4314
G01 X96.3305 Y57.4320
G01 X96.2276 Y57.4416
G01 X96.1258 Y57.4602
G01 X96.0261 Y57.4876
G01 X95.9292 Y57.5236
G01 X95.8358 Y57.5679
G01 X95.7465 Y57.6201
G01 X95.6622 Y57.6799
G01 X95.5834 Y57.7469
G01 X95.5108 Y57.8205
G01 X95.4448 Y57.9001
G01 X95.3860 Y57.9851
G00 Z5.0000

(Nr. 7 Ausschnitt bearbeiten: Ausschnitt 138)
G00 X102.3175 Y51.4332 Z5.0000
G00 Z0.5000
G01 Z0.0000 F1800
G01 X102.3863 Y51.5045 Z-0.0595
G01 X102.4602 Y51.5706 Z-0.1190
G01 X102.5388 Y51.6309 Z-0.1786
G01 X102.6217 Y51.6852 Z-0.2381
G01 X102.7085 Y51.7331 Z-0.2976
G01 X102.7985 Y51.7744 Z-0.3571
G01 X102.8914 Y51.8089 Z-0.4167
G01 X102.9867 Y51.8363 Z-0.4762
G01 X103.0837 Y51.8566 Z-0.5357
G01 X103.1819 Y51.8695 Z-0.5952
G01 X103.2809 Y51.8751 Z-0.6548
G01 X103.3800 Y51.8732 Z-0.7143
G01 X103.4786 Y51.8640 Z-0.7738
G01 X103.5763 Y51.8473 Z-0.8333
G01 X103.6725 Y51.8235 Z-0.8929
G01 X103.7667 Y51.7925 Z-0.9524
G01 X103.8582 Y51.7546 Z-1.0119
G01 X103.9467 Y51.7099 Z-1.0714
G01 X104.0316 Y51.6588 Z-1.1310
G01 X104.1124 Y51.6014 Z-1.1905
G01 X104.1887 Y51.5382 Z-1.2500
G01 X104.2601 Y51.4694 Z-1.3095
G01 X104.3261 Y51.3955 Z-1.3690
G01 X104.3864 Y51.3169 Z-1.4286
G01 X104.4407 Y51.2340 Z-1.4881
G01 X104.4887 Y51.1473 Z-1.5476
G01 X104.5300 Y51.0572 Z-1.6071
G01 X104.5644 Y50.9643 Z-1.6667
G01 X104.5919 Y50.8690 Z-1.7262
G01 X104.6121 Y50.7720 Z-1.7857
G01 X104.6250 Y50.6738 Z-1.8452
G01 X104.6306 Y50.5748 Z-1.9048
G01 X104.6287 Y50.4757 Z-1.9643
G01 X104.6195 Y50.3771 Z-2.0238
G01 X104.6029 Y50.2794 Z-2.0833
G01 X104.5790 Y50.1832 Z-2.1429
G01 X104.5480 Y50.0890 Z-2.2024
G01 X104.5101 Y49.9975 Z-2.2619
G01 X104.4654 Y49.9090 Z-2.3214
G01 X104.4143 Y49.8241 Z-2.3810
G01 X104.3569 Y49.7433 Z-2.4405
G01 X104.2937 Y49.6670 Z-2.5000
G01 X104.2250 Y49.5956 Z-2.5595
G01 X104.1511 Y49.5296 Z-2.6190
G01 X104.0724 Y49.4693 Z-2.6786
G01 X103.9895 Y49.4150 Z-2.7381
G01 X103.9028 Y49.3671 Z-2.7976
G01 X103.8127 Y49.3257 Z-2.8571
G01 X103.7198 Y49.2913 Z-2.9167
G01 X103.6246 Y49.2638 Z-2.9762
G01 X103.5275 Y49.2436 Z-3.0357
G01 X103.4293 Y49.2307 Z-3.0952
G01 X103.3303 Y49.2251 Z-3.1548
G01 X103.2313 Y49.2270 Z-3.2143
G01 X103.1326 Y49.2362 Z-3.2738
G01 X103.0349 Y49.2528 Z-3.3333
G01 X102.9387 Y49.2767 Z-3.3929
G01 X102.8446 Y49.3077 Z-3.4524
G01 X102.7530 Y49.3456 Z-3.5119
G01 X102.6645 Y49.3903 Z-3.5714
G01 X102.5797 Y49.4414 Z-3.6310
G01 X102.4988 Y49.4988 Z-3.6905
G01 X102.4225 Y49.5620 Z-3.7500
G01 X102.3512 Y49.6307 Z-3.8095
G01 X102.2851 Y49.7046 Z-3.8690
G01 X102.2248 Y49.7833 Z-3.9286
G01 X102.1705 Y49.8662 Z-3.9881
G01 X102.1226 Y49.9529 Z-4.0476
G01 X102.0813 Y50.0430 Z-4.1071
G01 X102.0468 Y50.1359 Z-4.1667
G01 X102.0194 Y50.2311 Z-4.2262
G01 X101.9991 Y50.3282 Z-4.2857
G01 X101.9862 Y50.4264 Z-4.3452
G01 X101.9806 Y50.5254 Z-4.4048
G01 X101.9825 Y50.6244 Z-4.4643
G01 X101.9918 Y50.7231 Z-4.5238
G01 X102.0084 Y50.8208 Z-4.5833
G01 X102.0322 Y50.9170 Z-4.6429
G01 X102.0632 Y51.0111 Z-4.7024
G01 X102.1011 Y51.1027 Z-4.7619
G01 X102.1458 Y51.1912 Z-4.8214
G01 X102.1969 Y51.2760 Z-4.8810
G01 X102.2543 Y51.3569 Z-4.9405
G01 X102.3175 Y51.4332 Z-5.0000
G01 X102.3863 Y51.5045 Z-5.0595
G01 X102.4602 Y51.5706 Z-5.1190
G01 X102.5388 Y51.6309 Z-5.1786
G01 X102.6217 Y51.6852 Z-5.2381
G01 X102.7085 Y51.7331 Z-5.2976
G01 X102.7985 Y51.7744 Z-5.3571
G01 X102.8914 Y51.8089 Z-5.4167
G01 X102.9867 Y51.8363 Z-5.4762
G01 X103.0837 Y51.8566 Z-5.5357
G01 X103.1819 Y51.8695 Z-5.5952
G01 X103.2809 Y51.8751 Z-5.6548
G01 X103.3800 Y51.8732 Z-5.7143
G01 X103.4786 Y51.8640 Z-5.7738
G01 X103.5763 Y51.8473 Z-5.8333
G01 X103.6725 Y51.8235 Z-5.8929
G01 X103.7667 Y51.7925 Z-5.9524
G01 X103.8582 Y51.7546 Z-6.0119
G01 X103.9467 Y51.7099 Z-6.0714
G01 X104.0316 Y51.6588 Z-6.1310
G01 X104.1124 Y51.6014 Z-6.1905
G01 X104.1887 Y51.5382 Z-6.2500
G01 X104.2601 Y51.4694 Z-6.3095
G01 X104.3261 Y51.3955 Z-6.3690
G01 X104.3864 Y51.3169 Z-6.4286
G01 X104.4407 Y51.2340 Z-6.4881
G01 X104.4887 Y51.1473 Z-6.5476
G01 X104.5300 Y51.0572 Z-6.6071
G01 X104.5644 Y50.9643 Z-6.6667
G01 X104.5919 Y50.8690 Z-6.7262
G01 X104.6121 Y50.7720 Z-6.7857
G01 X104.6250 Y50.6738 Z-6.8452
G01 X104.6306 Y50.5748 Z-6.9048
G01 X104.6287 Y50.4757 Z-6.9643
G01 X104.6195 Y50.3771 Z-7.0238
G01 X104.6029 Y50.2794 Z-7.0833
G01 X104.5790 Y50.1832 Z-7.1429
G01 X104.5480 Y50.0890 Z-7.2024
G01 X104.5101 Y49.9975 Z-7.2619
G01 X104.4654 Y49.9090 Z-7.3214
G01 X104.4143 Y49.8241 Z-7.3810
G01 X104.3569 Y49.7433 Z-7.4405
G01 X104.2937 Y49.6670 Z-7.5000
G01 X104.2250 Y49.5956 Z-7.5595
G01 X104.1511 Y49.5296 Z-7.6190
G01 X104.0724 Y49.4693 Z-7.6786
G01 X103.9895 Y49.4150 Z-7.7381
G01 X103.9028 Y49.3671 Z-7.7976
G01 X103.8127 Y49.3257 Z-7.8571
G01 X103.7198 Y49.2913 Z-7.9167
G01 X103.6246 Y49.2638 Z-7.9762
G01 X103.5275 Y49.2436 Z-8.0357
G01 X103.4293 Y49.2307 Z-8.0952
G01 X103.3303 Y49.2251 Z-8.1548
G01 X103.2313 Y49.2270 Z-8.2143
G01 X103.1326 Y49.2362 Z-8.2738
G01 X103.0349 Y49.2528 Z-8.3333
G01 X102.9387 Y49.2767 Z-8.3929
G01 X102.8446 Y49.3077 Z-8.4524
G01 X102.7530 Y49.3456 Z-8.5119
G01 X102.6645 Y49.3903 Z-8.5714
G01 X102.5797 Y49.4414 Z-8.6310
G01 X102.4988 Y49.4988 Z-8.6905
G01 X102.4225 Y49.5620 Z-8.7500
G01 X102.3512 Y49.6307 Z-8.8095
G01 X102.2851 Y49.7046 Z-8.8690
G01 X102.2248 Y49.7833 Z-8.9286
G01 X102.1705 Y49.8662 Z-8.9881
G01 X102.1226 Y49.9529 Z-9.0476
G01 X102.0813 Y50.0430 Z-9.1071
G01 X102.0468 Y50.1359 Z-9.1667
G01 X102.0194 Y50.2311 Z-9.2262
G01 X101.9991 Y50.3282 Z-9.2857
G01 X101.9862 Y50.4264 Z-9.3452
G01 X101.9806 Y50.5254 Z-9.4048
G01 X101.9825 Y50.6244 Z-9.4643
G01 X101.9918 Y50.7231 Z-9.5238
G01 X102.0084 Y50.8208 Z-9.5833
G01 X102.0322 Y50.9170 Z-9.6429
G01 X102.0632 Y51.0111 Z-9.7024
G01 X102.1011 Y51.1027 Z-9.7619
G01 X102.1458 Y51.1912 Z-9.8214
G01 X102.1969 Y51.2760 Z-9.8810
G01 X102.2543 Y51.3569 Z-9.9405
G01 X102.3175 Y51.4332 Z-10.0000
G01 X102.3863 Y51.5045 Z-10.0476
G01 X102.4602 Y51.5706 Z-10.0952
G01 X102.5388 Y51.6309 Z-10.1429
G01 X102.6217 Y51.6852 Z-10.1905
G01 X102.7085 Y51.7331 Z-10.2381
G01 X102.7985 Y51.7744 Z-10.2857
G01 X102.8914 Y51.8089 Z-10.3333
G01 X102.9867 Y51.8363 Z-10.3810
G01 X103.0837 Y51.8566 Z-10.4286
G01 X103.1819 Y51.8695 Z-10.4762
G01 X103.2809 Y51.8751 Z-10.5238
G01 X103.3800 Y51.8732 Z-10.5714
G01 X103.4786 Y51.8640 Z-10.6190
G01 X103.5763 Y51.8473 Z-10.6667
G01 X103.6725 Y51.8235 Z-10.7143
G01 X103.7667 Y51.7925 Z-10.7619
G01 X103.8582 Y51.7546 Z-10.8095
G01 X103.9467 Y51.7099 Z-10.8571
G01 X104.0316 Y51.6588 Z-10.9048
G01 X104.1124 Y51.6014 Z-10.9524
G01 X104.1887 Y51.5382 Z-11.0000
G01 X104.2601 Y51.4694 Z-11.0476
G01 X104.3261 Y51.3955 Z-11.0952
G01 X104.3864 Y51.3169 Z-11.1429
G01 X104.4407 Y51.2340 Z-11.1905
G01 X104.4887 Y51.1473 Z-11.2381
G01 X104.5300 Y51.0572 Z-11.2857
G01 X104.5644 Y50.9643 Z-11.3333
G01 X104.5919 Y50.8690 Z-11.3810
G01 X104.6121 Y50.7720 Z-11.4286
G01 X104.6250 Y50.6738 Z-11.4762
G01 X104.6306 Y50.5748 Z-11.5238
G01 X104.6287 Y50.4757 Z-11.5714
G01 X104.6195 Y50.3771 Z-11.6190
G01 X104.6029 Y50.2794 Z-11.6667
G01 X104.5790 Y50.1832 Z-11.7143
G01 X104.5480 Y50.0890 Z-11.7619
G01 X104.5101 Y49.9975 Z-11.8095
G01 X104.4654 Y49.9090 Z-11.8571
G01 X104.4143 Y49.8241 Z-11.9048
G01 X104.3569 Y49.7433 Z-11.9524
G01 X104.2937 Y49.6670 Z-12.0000
G01 X104.2250 Y49.5956 Z-12.0476
G01 X104.1511 Y49.5296 Z-12.0952
G01 X104.0724 Y49.4693 Z-12.1429
G01 X103.9895 Y49.4150 Z-12.1905
G01 X103.9028 Y49.3671 Z-12.2381
G01 X103.8127 Y49.3257 Z-12.2857
G01 X103.7198 Y49.2913 Z-12.3333
G01 X103.6246 Y49.2638 Z-12.3810
G01 X103.5275 Y49.2436 Z-12.4286
G01 X103.4293 Y49.2307 Z-12.4762
G01 X103.3303 Y49.2251 Z-12.5238
G01 X103.2313 Y49.2270 Z-12.5714
G01 X103.1326 Y49.2362 Z-12.6190
G01 X103.0349 Y49.2528 Z-12.6667
G01 X102.9387 Y49.2767 Z-12.7143
G01 X102.8446 Y49.3077 Z-12.7619
G01 X102.7530 Y49.3456 Z-12.8095
G01 X102.6645 Y49.3903 Z-12.8571
G01 X102.5797 Y49.4414 Z-12.9048
G01 X102.4988 Y49.4988 Z-12.9524
G01 X102.4225 Y49.5620 Z-13.0000
G01 X102.3512 Y49.6307 Z-13.0476
G01 X102.2851 Y49.7046 Z-13.0952
G01 X102.2248 Y49.7833 Z-13.1429
G01 X102.1705 Y49.8662 Z-13.1905
G01 X102.1226 Y49.9529 Z-13.2381
G01 X102.0813 Y50.0430 Z-13.2857
G01 X102.0468 Y50.1359 Z-13.3333
G01 X102.0194 Y50.2311 Z-13.3810
G01 X101.9991 Y50.3282 Z-13.4286
G01 X101.9862 Y50.4264 Z-13.4762
G01 X101.9806 Y50.5254 Z-13.5238
G01 X101.9825 Y50.6244 Z-13.5714
G01 X101.9918 Y50.7231 Z-13.6190
G01 X102.0084 Y50.8208 Z-13.6667
G01 X102.0322 Y50.9170 Z-13.7143
G01 X102.0632 Y51.0111 Z-13.7619
G01 X102.1011 Y51.1027 Z-13.8095
G01 X102.1458 Y51.1912 Z-13.8571
G01 X102.1969 Y51.2760 Z-13.9048
G01 X102.2543 Y51.3569 Z-13.9524
G01 X102.3175 Y51.4332 Z-14.0000
G01 X102.3863 Y51.5045 F3600
G01 X102.4602 Y51.5706
G01 X102.5388 Y51.6309
G01 X102.6217 Y51.6852
G01 X102.7085 Y51.7331
G01 X102.7985 Y51.7744
G01 X102.8914 Y51.8089
G01 X102.9867 Y51.8363
G01 X103.0837 Y51.8566
G01 X103.1819 Y51.8695
G01 X103.2809 Y51.8751
G01 X103.3800 Y51.8732
G01 X103.4786 Y51.8640
G01 X103.5763 Y51.8473
G01 X103.6725 Y51.8235
G01 X103.7667 Y51.7925
G01 X103.8582 Y51.7546
G01 X103.9467 Y51.7099
G01 X104.0316 Y51.6588
G01 X104.1124 Y51.6014
G01 X104.1887 Y51.5382
G01 X104.2601 Y51.4694
G01 X104.3261 Y51.3955
G01 X104.3864 Y51.3169
G01 X104.4407 Y51.2340
G01 X104.4887 Y51.1473
G01 X104.5300 Y51.0572
G01 X104.5644 Y50.9643
G01 X104.5919 Y50.8690
G01 X104.6121 Y50.7720
G01 X104.6250 Y50.6738
G01 X104.6306 Y50.5748
G01 X104.6287 Y50.4757
G01 X104.6195 Y50.3771
G01 X104.6029 Y50.2794
G01 X104.5790 Y50.1832
G01 X104.5480 Y50.0890
G01 X104.5101 Y49.9975
G01 X104.4654 Y49.9090
G01 X104.4143 Y49.8241
G01 X104.3569 Y49.7433
G01 X104.2937 Y49.6670
G01 X104.2250 Y49.5956
G01 X104.1511 Y49.5296
G01 X104.0724 Y49.4693
G01 X103.9895 Y49.4150
G01 X103.9028 Y49.3671
G01 X103.8127 Y49.3257
G01 X103.7198 Y49.2913
G01 X103.6246 Y49.2638
G01 X103.5275 Y49.2436
G01 X103.4293 Y49.2307
G01 X103.3303 Y49.2251
G01 X103.2313 Y49.2270
G01 X103.1326 Y49.2362
G01 X103.0349 Y49.2528
G01 X102.9387 Y49.2767
G01 X102.8446 Y49.3077
G01 X102.7530 Y49.3456
G01 X102.6645 Y49.3903
G01 X102.5797 Y49.4414
G01 X102.4988 Y49.4988
G01 X102.4225 Y49.5620
G01 X102.3512 Y49.6307
G01 X102.2851 Y49.7046
G01 X102.2248 Y49.7833
G01 X102.1705 Y49.8662
G01 X102.1226 Y49.9529
G01 X102.0813 Y50.0430
G01 X102.0468 Y50.1359
G01 X102.0194 Y50.2311
G01 X101.9991 Y50.3282
G01 X101.9862 Y50.4264
G01 X101.9806 Y50.5254
G01 X101.9825 Y50.6244
G01 X101.9918 Y50.7231
G01 X102.0084 Y50.8208
G01 X102.0322 Y50.9170
G01 X102.0632 Y51.0111
G01 X102.1011 Y51.1027
G01 X102.1458 Y51.1912
G01 X102.1969 Y51.2760
G01 X102.2543 Y51.3569
G01 X102.3175 Y51.4332
G00 Z5.0000

(Nr. 8 Ausschnitt bearbeiten: Ausschnitt 172)
G00 X96.2414 Y45.4482 Z5.0000
G00 Z0.5000
G01 Z0.0000 F1800
G01 X96.3124 Y45.3633 Z-0.0568
G01 X96.3773 Y45.2736 Z-0.1136
G01 X96.4355 Y45.1796 Z-0.1705
G01 X96.4869 Y45.0816 Z-0.2273
G01 X96.5312 Y44.9801 Z-0.2841
G01 X96.5682 Y44.8758 Z-0.3409
G01 X96.5976 Y44.7691 Z-0.3977
G01 X96.6193 Y44.6606 Z-0.4545
G01 X96.6332 Y44.5508 Z-0.5114
G01 X96.6393 Y44.4403 Z-0.5682
G01 X96.6374 Y44.3297 Z-0.6250
G01 X96.6277 Y44.2194 Z-0.6818
G01 X96.6101 Y44.1101 Z-0.7386
G01 X96.5848 Y44.0024 Z-0.7955
G01 X96.5519 Y43.8968 Z-0.8523
G01 X96.5115 Y43.7937 Z-0.9091
G01 X96.4638 Y43.6938 Z-0.9659
G01 X96.4092 Y43.5976 Z-1.0227
G01 X96.3478 Y43.5055 Z-1.0795
G01 X96.2800 Y43.4180 Z-1.1364
G01 X96.2062 Y43.3356 Z-1.1932
G01 X96.1266 Y43.2587 Z-1.2500
G01 X96.0418 Y43.1876 Z-1.3068
G01 X95.9521 Y43.1228 Z-1.3636
G01 X95.8580 Y43.0645 Z-1.4205
G01 X95.7600 Y43.0131 Z-1.4773
G01 X95.6586 Y42.9688 Z-1.5341
G01 X95.5543 Y42.9319 Z-1.5909
G01 X95.4476 Y42.9025 Z-1.6477
G01 X95.3390 Y42.8807 Z-1.7045
G01 X95.2293 Y42.8668 Z-1.7614
G01 X95.1188 Y42.8608 Z-1.8182
G01 X95.0081 Y42.8626 Z-1.8750
G01 X94.8979 Y42.8723 Z-1.9318
G01 X94.7886 Y42.8899 Z-1.9886
G01 X94.6809 Y42.9152 Z-2.0455
G01 X94.5752 Y42.9482 Z-2.1023
G01 X94.4722 Y42.9886 Z-2.1591
G01 X94.3723 Y43.0362 Z-2.2159
G01 X94.2761 Y43.0909 Z-2.2727
G01 X94.1840 Y43.1522 Z-2.3295
G01 X94.0965 Y43.2200 Z-2.3864
G01 X94.0141 Y43.2939 Z-2.4432
G01 X93.9371 Y43.3734 Z-2.5000
G01 X93.8661 Y43.4583 Z-2.5568
G01 X93.8012 Y43.5480 Z-2.6136
G01 X93.7430 Y43.6420 Z-2.6705
G01 X93.6915 Y43.7400 Z-2.7273
G01 X93.6472 Y43.8415 Z-2.7841
G01 X93.6103 Y43.9458 Z-2.8409
G01 X93.5809 Y44.0525 Z-2.8977
G01 X93.5592 Y44.1610 Z-2.9545
G01 X93.5453 Y44.2708 Z-3.0114
G01 X93.5392 Y44.3813 Z-3.0682
G01 X93.5410 Y44.4919 Z-3.1250
G01 X93.5508 Y44.6022 Z-3.1818
G01 X93.5684 Y44.7114 Z-3.2386
G01 X93.5937 Y44.8192 Z-3.2955
G01 X93.6266 Y44.9248 Z-3.3523
G01 X93.6670 Y45.0279 Z-3.4091
G01 X93.7147 Y45.1278 Z-3.4659
G01 X93.7693 Y45.2240 Z-3.5227
G01 X93.8307 Y45.3161 Z-3.5795
G01 X93.8985 Y45.4036 Z-3.6364
G01 X93.9723 Y45.4860 Z-3.6932
G01 X94.0519 Y45.5629 Z-3.7500
G01 X94.1367 Y45.6340 Z-3.8068
G01 X94.2264 Y45.6988 Z-3.8636
G01 X94.3205 Y45.7571 Z-3.9205
G01 X94.4185 Y45.8085 Z-3.9773
G01 X94.5199 Y45.8528 Z-4.0341
G01 X94.6242 Y45.8897 Z-4.0909
G01 X94.7309 Y45.9191 Z-4.1477
G01 X94.8394 Y45.9409 Z-4.2045
G01 X94.9492 Y45.9548 Z-4.2614
G01 X95.0597 Y45.9608 Z-4.3182
G01 X95.1704 Y45.9590 Z-4.3750
G01 X95.2806 Y45.9493 Z-4.4318
G01 X95.3899 Y45.9317 Z-4.4886
G01 X95.4976 Y45.9064 Z-4.5455
G01 X95.6033 Y45.8734 Z-4.6023
G01 X95.7063 Y45.8330 Z-4.6591
G01 X95.8062 Y45.7854 Z-4.7159
G01 X95.9024 Y45.7307 Z-4.7727
G01 X95.9945 Y45.6694 Z-4.8295
G01 X96.0820 Y45.6016 Z-4.8864
G01 X96.1644 Y45.5277 Z-4.9432
G01 X96.2414 Y45.4482 Z-5.0000
G01 X96.3124 Y45.3633 Z-5.0568
G01 X96.3773 Y45.2736 Z-5.1136
G01 X96.4355 Y45.1796 Z-5.1705
G01 X96.4869 Y45.0816 Z-5.2273
G01 X96.5312 Y44.9801 Z-5.2841
G01 X96.5682 Y44.8758 Z-5.3409
G01 X96.5976 Y44.7691 Z-5.3977
G01 X96.6193 Y44.6606 Z-5.4545
G01 X96.6332 Y44.5508 Z-5.5114
G01 X96.6393 Y44.4403 Z-5.5682
G01 X96.6374 Y44.3297 Z-5.6250
G01 X96.6277 Y44.2194 Z-5.6818
G01 X96.6101 Y44.1101 Z-5.7386
G01 X96.5848 Y44.0024 Z-5.7955
G01 X96.5519 Y43.8968 Z-5.8523
G01 X96.5115 Y43.7937 Z-5.9091
G01 X96.4638 Y43.6938 Z-5.9659
G01 X96.4092 Y43.5976 Z-6.0227
G01 X96.3478 Y43.5055 Z-6.0795
G01 X96.2800 Y43.4180 Z-6.1364
G01 X96.2062 Y43.3356 Z-6.1932
G01 X96.1266 Y43.2587 Z-6.2500
G01 X96.0418 Y43.1876 Z-6.3068
G01 X95.9521 Y43.1228 Z-6.3636
G01 X95.8580 Y43.0645 Z-6.4205
G01 X95.7600 Y43.0131 Z-6.4773
G01 X95.6586 Y42.9688 Z-6.5341
G01 X95.5543 Y42.9319 Z-6.5909
G01 X95.4476 Y42.9025 Z-6.6477
G01 X95.3390 Y42.8807 Z-6.7045
G01 X95.2293 Y42.8668 Z-6.7614
G01 X95.1188 Y42.8608 Z-6.8182
G01 X95.0081 Y42.8626 Z-6.8750
G01 X94.8979 Y42.8723 Z-6.9318
G01 X94.7886 Y42.8899 Z-6.9886
G01 X94.6809 Y42.9152 Z-7.0455
G01 X94.5752 Y42.9482 Z-7.1023
G01 X94.4722 Y42.9886 Z-7.1591
G01 X94.3723 Y43.0362 Z-7.2159
G01 X94.2761 Y43.0909 Z-7.2727
G01 X94.1840 Y43.1522 Z-7.3295
G01 X94.0965 Y43.2200 Z-7.3864
G01 X94.0141 Y43.2939 Z-7.4432
G01 X93.9371 Y43.3734 Z-7.5000
G01 X93.8661 Y43.4583 Z-7.5568
G01 X93.8012 Y43.5480 Z-7.6136
G01 X93.7430 Y43.6420 Z-7.6705
G01 X93.6915 Y43.7400 Z-7.7273
G01 X93.6472 Y43.8415 Z-7.7841
G01 X93.6103 Y43.9458 Z-7.8409
G01 X93.5809 Y44.0525 Z-7.8977
G01 X93.5592 Y44.1610 Z-7.9545
G01 X93.5453 Y44.2708 Z-8.0114
G01 X93.5392 Y44.3813 Z-8.0682
G01 X93.5410 Y44.4919 Z-8.1250
G01 X93.5508 Y44.6022 Z-8.1818
G01 X93.5684 Y44.7114 Z-8.2386
G01 X93.5937 Y44.8192 Z-8.2955
G01 X93.6266 Y44.9248 Z-8.3523
G01 X93.6670 Y45.0279 Z-8.4091
G01 X93.7147 Y45.1278 Z-8.4659
G01 X93.7693 Y45.2240 Z-8.5227
G01 X93.8307 Y45.3161 Z-8.5795
G01 X93.8985 Y45.4036 Z-8.6364
G01 X93.9723 Y45.4860 Z-8.6932
G01 X94.0519 Y45.5629 Z-8.7500
G01 X94.1367 Y45.6340 Z-8.8068
G01 X94.2264 Y45.6988 Z-8.8636
G01 X94.3205 Y45.7571 Z-8.9205
G01 X94.4185 Y45.8085 Z-8.9773
G01 X94.5199 Y45.8528 Z-9.0341
G01 X94.6242 Y45.8897 Z-9.0909
G01 X94.7309 Y45.9191 Z-9.1477
G01 X94.8394 Y45.9409 Z-9.2045
G01 X94.9492 Y45.9548 Z-9.2614
G01 X95.0597 Y45.9608 Z-9.3182
G01 X95.1704 Y45.9590 Z-9.3750
G01 X95.2806 Y45.9493 Z-9.4318
G01 X95.3899 Y45.9317 Z-9.4886
G01 X95.4976 Y45.9064 Z-9.5455
G01 X95.6033 Y45.8734 Z-9.6023
G01 X95.7063 Y45.8330 Z-9.6591
G01 X95.8062 Y45.7854 Z-9.7159
G01 X95.9024 Y45.7307 Z-9.7727
G01 X95.9945 Y45.6694 Z-9.8295
G01 X96.0820 Y45.6016 Z-9.8864
G01 X96.1644 Y45.5277 Z-9.9432
G01 X96.2414 Y45.4482 Z-10.0000
G01 X96.3124 Y45.3633 Z-10.0455
G01 X96.3773 Y45.2736 Z-10.0909
G01 X96.4355 Y45.1796 Z-10.1364
G01 X96.4869 Y45.0816 Z-10.1818
G01 X96.5312 Y44.9801 Z-10.2273
G01 X96.5682 Y44.8758 Z-10.2727
G01 X96.5976 Y44.7691 Z-10.3182
G01 X96.6193 Y44.6606 Z-10.3636
G01 X96.6332 Y44.5508 Z-10.4091
G01 X96.6393 Y44.4403 Z-10.4545
G01 X96.6374 Y44.3297 Z-10.5000
G01 X96.6277 Y44.2194 Z-10.5455
G01 X96.6101 Y44.1101 Z-10.5909
G01 X96.5848 Y44.0024 Z-10.6364
G01 X96.5519 Y43.8968 Z-10.6818
G01 X96.5115 Y43.7937 Z-10.7273
G01 X96.4638 Y43.6938 Z-10.7727
G01 X96.4092 Y43.5976 Z-10.8182
G01 X96.3478 Y43.5055 Z-10.8636
G01 X96.2800 Y43.4180 Z-10.9091
G01 X96.2062 Y43.3356 Z-10.9545
G01 X96.1266 Y43.2587 Z-11.0000
G01 X96.0418 Y43.1876 Z-11.0455
G01 X95.9521 Y43.1228 Z-11.0909
G01 X95.8580 Y43.0645 Z-11.1364
G01 X95.7600 Y43.0131 Z-11.1818
G01 X95.6586 Y42.9688 Z-11.2273
G01 X95.5543 Y42.9319 Z-11.2727
G01 X95.4476 Y42.9025 Z-11.3182
G01 X95.3390 Y42.8807 Z-11.3636
G01 X95.2293 Y42.8668 Z-11.4091
G01 X95.1188 Y42.8608 Z-11.4545
G01 X95.0081 Y42.8626 Z-11.5000
G01 X94.8979 Y42.8723 Z-11.5455
G01 X94.7886 Y42.8899 Z-11.5909
G01 X94.6809 Y42.9152 Z-11.6364
G01 X94.5752 Y42.9482 Z-11.6818
G01 X94.4722 Y42.9886 Z-11.7273
G01 X94.3723 Y43.0362 Z-11.7727
G01 X94.2761 Y43.0909 Z-11.8182
G01 X94.1840 Y43.1522 Z-11.8636
G01 X94.0965 Y43.2200 Z-11.9091
G01 X94.0141 Y43.2939 Z-11.9545
G01 X93.9371 Y43.3734 Z-12.0000
G01 X93.8661 Y43.4583 Z-12.0455
G01 X93.8012 Y43.5480 Z-12.0909
G01 X93.7430 Y43.6420 Z-12.1364
G01 X93.6915 Y43.7400 Z-12.1818
G01 X93.6472 Y43.8415 Z-12.2273
G01 X93.6103 Y43.9458 Z-12.2727
G01 X93.5809 Y44.0525 Z-12.3182
G01 X93.5592 Y44.1610 Z-12.3636
G01 X93.5453 Y44.2708 Z-12.4091
G01 X93.5392 Y44.3813 Z-12.4545
G01 X93.5410 Y44.4919 Z-12.5000
G01 X93.5508 Y44.6022 Z-12.5455
G01 X93.5684 Y44.7114 Z-12.5909
G01 X93.5937 Y44.8192 Z-12.6364
G01 X93.6266 Y44.9248 Z-12.6818
G01 X93.6670 Y45.0279 Z-12.7273
G01 X93.7147 Y45.1278 Z-12.7727
G01 X93.7693 Y45.2240 Z-12.8182
G01 X93.8307 Y45.3161 Z-12.8636
G01 X93.8985 Y45.4036 Z-12.9091
G01 X93.9723 Y45.4860 Z-12.9545
G01 X94.0519 Y45.5629 Z-13.0000
G01 X94.1367 Y45.6340 Z-13.0455
G01 X94.2264 Y45.6988 Z-13.0909
G01 X94.3205 Y45.7571 Z-13.1364
G01 X94.4185 Y45.8085 Z-13.1818
G01 X94.5199 Y45.8528 Z-13.2273
G01 X94.6242 Y45.8897 Z-13.2727
G01 X94.7309 Y45.9191 Z-13.3182
G01 X94.8394 Y45.9409 Z-13.3636
G01 X94.9492 Y45.9548 Z-13.4091
G01 X95.0597 Y45.9608 Z-13.4545
G01 X95.1704 Y45.9590 Z-13.5000
G01 X95.2806 Y45.9493 Z-13.5455
G01 X95.3899 Y45.9317 Z-13.5909
G01 X95.4976 Y45.9064 Z-13.6364
G01 X95.6033 Y45.8734 Z-13.6818
G01 X95.7063 Y45.8330 Z-13.7273
G01 X95.8062 Y45.7854 Z-13.7727
G01 X95.9024 Y45.7307 Z-13.8182
G01 X95.9945 Y45.6694 Z-13.8636
G01 X96.0820 Y45.6016 Z-13.9091
G01 X96.1644 Y45.5277 Z-13.9545
G01 X96.2414 Y45.4482 Z-14.0000
G01 X96.3124 Y45.3633 F3600
G01 X96.3773 Y45.2736
G01 X96.4355 Y45.1796
G01 X96.4869 Y45.0816
G01 X96.5312 Y44.9801
G01 X96.5682 Y44.8758
G01 X96.5976 Y44.7691
G01 X96.6193 Y44.6606
G01 X96.6332 Y44.5508
G01 X96.6393 Y44.4403
G01 X96.6374 Y44.3297
G01 X96.6277 Y44.2194
G01 X96.6101 Y44.1101
G01 X96.5848 Y44.0024
G01 X96.5519 Y43.8968
G01 X96.5115 Y43.7937
G01 X96.4638 Y43.6938
G01 X96.4092 Y43.5976
G01 X96.3478 Y43.5055
G01 X96.2800 Y43.4180
G01 X96.2062 Y43.3356
G01 X96.1266 Y43.2587
G01 X96.0418 Y43.1876
G01 X95.9521 Y43.1228
G01 X95.8580 Y43.0645
G01 X95.7600 Y43.0131
G01 X95.6586 Y42.9688
G01 X95.5543 Y42.9319
G01 X95.4476 Y42.9025
G01 X95.3390 Y42.8807
G01 X95.2293 Y42.8668
G01 X95.1188 Y42.8608
G01 X95.0081 Y42.8626
G01 X94.8979 Y42.8723
G01 X94.7886 Y42.8899
G01 X94.6809 Y42.9152
G01 X94.5752 Y42.9482
G01 X94.4722 Y42.9886
G01 X94.3723 Y43.0362
G01 X94.2761 Y43.0909
G01 X94.1840 Y43.1522
G01 X94.0965 Y43.2200
G01 X94.0141 Y43.2939
G01 X93.9371 Y43.3734
G01 X93.8661 Y43.4583
G01 X93.8012 Y43.5480
G01 X93.7430 Y43.6420
G01 X93.6915 Y43.7400
G01 X93.6472 Y43.8415
G01 X93.6103 Y43.9458
G01 X93.5809 Y44.0525
G01 X93.5592 Y44.1610
G01 X93.5453 Y44.2708
G01 X93.5392 Y44.3813
G01 X93.5410 Y44.4919
G01 X93.5508 Y44.6022
G01 X93.5684 Y44.7114
G01 X93.5937 Y44.8192
G01 X93.6266 Y44.9248
G01 X93.6670 Y45.0279
G01 X93.7147 Y45.1278
G01 X93.7693 Y45.2240
G01 X93.8307 Y45.3161
G01 X93.8985 Y45.4036
G01 X93.9723 Y45.4860
G01 X94.0519 Y45.5629
G01 X94.1367 Y45.6340
G01 X94.2264 Y45.6988
G01 X94.3205 Y45.7571
G01 X94.4185 Y45.8085
G01 X94.5199 Y45.8528
G01 X94.6242 Y45.8897
G01 X94.7309 Y45.9191
G01 X94.8394 Y45.9409
G01 X94.9492 Y45.9548
G01 X95.0597 Y45.9608
G01 X95.1704 Y45.9590
G01 X95.2806 Y45.9493
G01 X95.3899 Y45.9317
G01 X95.4976 Y45.9064
G01 X95.6033 Y45.8734
G01 X95.7063 Y45.8330
G01 X95.8062 Y45.7854
G01 X95.9024 Y45.7307
G01 X95.9945 Y45.6694
G01 X96.0820 Y45.6016
G01 X96.1644 Y45.5277
G01 X96.2414 Y45.4482
G00 Z5.0000

(Nr. 9 Ausschnitt bearbeiten: Ausschnitt 206)
G00 X87.6376 Y40.7663 Z5.0000
G00 Z0.5000
G01 Z0.0000 F1800
G01 X87.6906 Y40.6587 Z-0.0537
G01 X87.7361 Y40.5477 Z-0.1074
G01 X87.7741 Y40.4340 Z-0.1611
G01 X87.8043 Y40.3179 Z-0.2148
G01 X87.8266 Y40.2000 Z-0.2686
G01 X87.8410 Y40.0810 Z-0.3223
G01 X87.8472 Y39.9612 Z-0.3760
G01 X87.8454 Y39.8413 Z-0.4297
G01 X87.8355 Y39.7218 Z-0.4834
G01 X87.8175 Y39.6032 Z-0.5371
G01 X87.7916 Y39.4861 Z-0.5908
G01 X87.7578 Y39.3710 Z-0.6445
G01 X87.7164 Y39.2584 Z-0.6982
G01 X87.6674 Y39.1490 Z-0.7520
G01 X87.6112 Y39.0430 Z-0.8057
G01 X87.5480 Y38.9411 Z-0.8594
G01 X87.4780 Y38.8437 Z-0.9131
G01 X87.4017 Y38.7512 Z-0.9668
G01 X87.3192 Y38.6641 Z-1.0205
G01 X87.2311 Y38.5827 Z-1.0742
G01 X87.1377 Y38.5075 Z-1.1279
G01 X87.0394 Y38.4387 Z-1.1816
G01 X86.9368 Y38.3768 Z-1.2354
G01 X86.8301 Y38.3219 Z-1.2891
G01 X86.7201 Y38.2743 Z-1.3428
G01 X86.6070 Y38.2342 Z-1.3965
G01 X86.4915 Y38.2019 Z-1.4502
G01 X86.3741 Y38.1774 Z-1.5039
G01 X86.2553 Y38.1609 Z-1.5576
G01 X86.1357 Y38.1524 Z-1.6113
G01 X86.0157 Y38.1521 Z-1.6650
G01 X85.8961 Y38.1598 Z-1.7188
G01 X85.7772 Y38.1756 Z-1.7725
G01 X85.6596 Y38.1993 Z-1.8262
G01 X85.5439 Y38.2310 Z-1.8799
G01 X85.4306 Y38.2703 Z-1.9336
G01 X85.3203 Y38.3172 Z-1.9873
G01 X85.2133 Y38.3715 Z-2.0410
G01 X85.1102 Y38.4328 Z-2.0947
G01 X85.0115 Y38.5010 Z-2.1484
G01 X84.9177 Y38.5756 Z-2.2022
G01 X84.8291 Y38.6565 Z-2.2559
G01 X84.7461 Y38.7431 Z-2.3096
G01 X84.6692 Y38.8351 Z-2.3633
G01 X84.5986 Y38.9321 Z-2.4170
G01 X84.5348 Y39.0336 Z-2.4707
G01 X84.4779 Y39.1392 Z-2.5244
G01 X84.4283 Y39.2484 Z-2.5781
G01 X84.3852 Y39.3635 Z-2.6332
G01 X84.3502 Y39.4813 Z-2.6882
G01 X84.3234 Y39.6012 Z-2.7433
G01 X84.3050 Y39.7227 Z-2.7983
G01 X84.2950 Y39.8452 Z-2.8534
G01 X84.2935 Y39.9681 Z-2.9084
G01 X84.3004 Y40.0908 Z-2.9634
G01 X84.3159 Y40.2128 Z-3.0185
G01 X84.3397 Y40.3333 Z-3.0735
G01 X84.3719 Y40.4520 Z-3.1286
G01 X84.4121 Y40.5681 Z-3.1836
G01 X84.4603 Y40.6812 Z-3.2386
G01 X84.5161 Y40.7907 Z-3.2937
G01 X84.5794 Y40.8960 Z-3.3487
G01 X84.6499 Y40.9967 Z-3.4038
G01 X84.7271 Y41.0923 Z-3.4588
G01 X84.8108 Y41.1824 Z-3.5139
G01 X84.9004 Y41.2664 Z-3.5689
G01 X84.9957 Y41.3441 Z-3.6239
G01 X85.0961 Y41.4150 Z-3.6790
G01 X85.2012 Y41.4787 Z-3.7340
G01 X85.3104 Y41.5351 Z-3.7891
G01 X85.4232 Y41.5838 Z-3.8441
G01 X85.5392 Y41.6245 Z-3.8992
G01 X85.6577 Y41.6572 Z-3.9542
G01 X85.7781 Y41.6816 Z-4.0092
G01 X85.9000 Y41.6976 Z-4.0643
G01 X86.0227 Y41.7051 Z-4.1193
G01 X86.1456 Y41.7041 Z-4.1744
G01 X86.2681 Y41.6947 Z-4.2294
G01 X86.3897 Y41.6768 Z-4.2845
G01 X86.5098 Y41.6505 Z-4.3395
G01 X86.6277 Y41.6160 Z-4.3945
G01 X86.7430 Y41.5735 Z-4.4496
G01 X86.8551 Y41.5230 Z-4.5046
G01 X86.9635 Y41.4650 Z-4.5597
G01 X87.0675 Y41.3996 Z-4.6147
G01 X87.1668 Y41.3271 Z-4.6697
G01 X87.2608 Y41.2480 Z-4.7248
G01 X87.3492 Y41.1626 Z-4.7798
G01 X87.4314 Y41.0712 Z-4.8349
G01 X87.5071 Y40.9744 Z-4.8899
G01 X87.5760 Y40.8726 Z-4.9450
G01 X87.6376 Y40.7663 Z-5.0000
G01 X87.6906 Y40.6587 Z-5.0537
G01 X87.7361 Y40.5477 Z-5.1074
G01 X87.7741 Y40.4340 Z-5.1611
G01 X87.8043 Y40.3179 Z-5.2148
G01 X87.8266 Y40.2000 Z-5.2686
G01 X87.8410 Y40.0810 Z-5.3223
G01 X87.8472 Y39.9612 Z-5.3760
G01 X87.8454 Y39.8413 Z-5.4297
G01 X87.8355 Y39.7218 Z-5.4834
G01 X87.8175 Y39.6032 Z-5.5371
G01 X87.7916 Y39.4861 Z-5.5908
G01 X87.7578 Y39.3710 Z-5.6445
G01 X87.7164 Y39.2584 Z-5.6982
G01 X87.6674 Y39.1490 Z-5.7520
G01 X87.6112 Y39.0430 Z-5.8057
G01 X87.5480 Y38.9411 Z-5.8594
G01 X87.4780 Y38.8437 Z-5.9131
G01 X87.4017 Y38.7512 Z-5.9668
G01 X87.3192 Y38.6641 Z-6.0205
G01 X87.2311 Y38.5827 Z-6.0742
G01 X87.1377 Y38.5075 Z-6.1279
G01 X87.0394 Y38.4387 Z-6.1816
G01 X86.9368 Y38.3768 Z-6.2354
G01 X86.8301 Y38.3219 Z-6.2891
G01 X86.7201 Y38.2743 Z-6.3428
G01 X86.6070 Y38.2342 Z-6.3965
G01 X86.4915 Y38.2019 Z-6.4502
G01 X86.3741 Y38.1774 Z-6.5039
G01 X86.2553 Y38.1609 Z-6.5576
G01 X86.1357 Y38.1524 Z-6.6113
G01 X86.0157 Y38.1521 Z-6.6650
G01 X85.8961 Y38.1598 Z-6.7188
G01 X85.7772 Y38.1756 Z-6.7725
G01 X85.6596 Y38.1993 Z-6.8262
G01 X85.5439 Y38.2310 Z-6.8799
G01 X85.4306 Y38.2703 Z-6.9336
G01 X85.3203 Y38.3172 Z-6.9873
G01 X85.2133 Y38.3715 Z-7.0410
G01 X85.1102 Y38.4328 Z-7.0947
G01 X85.0115 Y38.5010 Z-7.1484
G01 X84.9177 Y38.5756 Z-7.2022
G01 X84.8291 Y38.6565 Z-7.2559
G01 X84.7461 Y38.7431 Z-7.3096
G01 X84.6692 Y38.8351 Z-7.3633
G01 X84.5986 Y38.9321 Z-7.4170
G01 X84.5348 Y39.0336 Z-7.4707
G01 X84.4779 Y39.1392 Z-7.5244
G01 X84.4283 Y39.2484 Z-7.5781
G01 X84.3852 Y39.3635 Z-7.6332
G01 X84.3502 Y39.4813 Z-7.6882
G01 X84.3234 Y39.6012 Z-7.7433
G01 X84.3050 Y39.7227 Z-7.7983
G01 X84.2950 Y39.8452 Z-7.8534
G01 X84.2935 Y39.9681 Z-7.9084
G01 X84.3004 Y40.0908 Z-7.9634
G01 X84.3159 Y40.2128 Z-8.0185
G01 X84.3397 Y40.3333 Z-8.0735
G01 X84.3719 Y40.4520 Z-8.1286
G01 X84.4121 Y40.5681 Z-8.1836
G01 X84.4603 Y40.6812 Z-8.2386
G01 X84.5161 Y40.7907 Z-8.2937
G01 X84.5794 Y40.8960 Z-8.3487
G01 X84.6499 Y40.9967 Z-8.4038
G01 X84.7271 Y41.0923 Z-8.4588
G01 X84.8108 Y41.1824 Z-8.5139
G01 X84.9004 Y41.2664 Z-8.5689
G01 X84.9957 Y41.3441 Z-8.6239
G01 X85.0961 Y41.4150 Z-8.6790
G01 X85.2012 Y41.4787 Z-8.7340
G01 X85.3104 Y41.5351 Z-8.7891
G01 X85.4232 Y41.5838 Z-8.8441
G01 X85.5392 Y41.6245 Z-8.8992
G01 X85.6577 Y41.6572 Z-8.9542
G01 X85.7781 Y41.6816 Z-9.0092
G01 X85.9000 Y41.6976 Z-9.0643
G01 X86.0227 Y41.7051 Z-9.1193
G01 X86.1456 Y41.7041 Z-9.1744
G01 X86.2681 Y41.6947 Z-9.2294
G01 X86.3897 Y41.6768 Z-9.2845
G01 X86.5098 Y41.6505 Z-9.3395
G01 X86.6277 Y41.6160 Z-9.3945
G01 X86.7430 Y41.5735 Z-9.4496
G01 X86.8551 Y41.5230 Z-9.5046
G01 X86.9635 Y41.4650 Z-9.5597
G01 X87.0675 Y41.3996 Z-9.6147
G01 X87.1668 Y41.3271 Z-9.6697
G01 X87.2608 Y41.2480 Z-9.7248
G01 X87.3492 Y41.1626 Z-9.7798
G01 X87.4314 Y41.0712 Z-9.8349
G01 X87.5071 Y40.9744 Z-9.8899
G01 X87.5760 Y40.8726 Z-9.9450
G01 X87.6376 Y40.7663 Z-10.0000
G01 X87.6906 Y40.6587 Z-10.0437
G01 X87.7361 Y40.5477 Z-10.0873
G01 X87.7741 Y40.4340 Z-10.1310
G01 X87.8043 Y40.3179 Z-10.1746
G01 X87.8266 Y40.2000 Z-10.2183
G01 X87.8410 Y40.0810 Z-10.2620
G01 X87.8472 Y39.9612 Z-10.3056
G01 X87.8454 Y39.8413 Z-10.3493
G01 X87.8355 Y39.7218 Z-10.3929
G01 X87.8175 Y39.6032 Z-10.4366
G01 X87.7916 Y39.4861 Z-10.4803
G01 X87.7578 Y39.3710 Z-10.5239
G01 X87.7164 Y39.2584 Z-10.5676
G01 X87.6674 Y39.1490 Z-10.6112
G01 X87.6112 Y39.0430 Z-10.6549
G01 X87.5480 Y38.9411 Z-10.6986
G01 X87.4780 Y38.8437 Z-10.7422
G01 X87.4017 Y38.7512 Z-10.7859
G01 X87.3192 Y38.6641 Z-10.8296
G01 X87.2311 Y38.5827 Z-10.8732
G01 X87.1377 Y38.5075 Z-10.9169
G01 X87.0394 Y38.4387 Z-10.9605
G01 X86.9368 Y38.3768 Z-11.0042
G01 X86.8301 Y38.3219 Z-11.0479
G01 X86.7201 Y38.2743 Z-11.0915
G01 X86.6070 Y38.2342 Z-11.1352
G01 X86.4915 Y38.2019 Z-11.1788
G01 X86.3741 Y38.1774 Z-11.2225
G01 X86.2553 Y38.1609 Z-11.2662
G01 X86.1357 Y38.1524 Z-11.3098
G01 X86.0157 Y38.1521 Z-11.3535
G01 X85.8961 Y38.1598 Z-11.3971
G01 X85.7772 Y38.1756 Z-11.4408
G01 X85.6596 Y38.1993 Z-11.4845
G01 X85.5439 Y38.2310 Z-11.5281
G01 X85.4306 Y38.2703 Z-11.5718
G01 X85.3203 Y38.3172 Z-11.6154
G01 X85.2133 Y38.3715 Z-11.6591
G01 X85.1102 Y38.4328 Z-11.7028
G01 X85.0115 Y38.5010 Z-11.7464
G01 X84.9177 Y38.5756 Z-11.7901
G01 X84.8291 Y38.6565 Z-11.8337
G01 X84.7461 Y38.7431 Z-11.8774
G01 X84.6692 Y38.8351 Z-11.9211
G01 X84.5986 Y38.9321 Z-11.9647
G01 X84.5348 Y39.0336 Z-12.0084
G01 X84.4779 Y39.1392 Z-12.0520
G01 X84.4283 Y39.2484 Z-12.0957
G01 X84.3865 Y39.3597 Z-12.1390
G01 X84.3522 Y39.4735 Z-12.1823
G01 X84.3257 Y39.5894 Z-12.2255
G01 X84.3069 Y39.7068 Z-12.2688
G01 X84.2960 Y39.8252 Z-12.3121
G01 X84.2931 Y39.9440 Z-12.3554
G01 X84.2981 Y40.0628 Z-12.3987
G01 X84.3110 Y40.1810 Z-12.4419
G01 X84.3319 Y40.2980 Z-12.4852
G01 X84.3605 Y40.4134 Z-12.5285
G01 X84.3967 Y40.5267 Z-12.5718
G01 X84.4404 Y40.6372 Z-12.6151
G01 X84.4915 Y40.7446 Z-12.6583
G01 X84.5496 Y40.8483 Z-12.7016
G01 X84.6145 Y40.9479 Z-12.7449
G01 X84.6859 Y41.0430 Z-12.7882
G01 X84.7635 Y41.1330 Z-12.8315
G01 X84.8469 Y41.2177 Z-12.8747
G01 X84.9359 Y41.2966 Z-12.9180
G01 X85.0299 Y41.3694 Z-12.9613
G01 X85.1285 Y41.4357 Z-13.0046
G01 X85.2314 Y41.4953 Z-13.0479
G01 X85.3380 Y41.5479 Z-13.0911
G01 X85.4479 Y41.5932 Z-13.1344
G01 X85.5606 Y41.6311 Z-13.1777
G01 X85.6756 Y41.6614 Z-13.2210
G01 X85.7923 Y41.6839 Z-13.2643
G01 X85.9103 Y41.6985 Z-13.3075
G01 X86.0290 Y41.7053 Z-13.3508
G01 X86.1479 Y41.7040 Z-13.3941
G01 X86.2664 Y41.6949 Z-13.4374
G01 X86.3841 Y41.6778 Z-13.4806
G01 X86.5003 Y41.6529 Z-13.5239
G01 X86.6147 Y41.6203 Z-13.5672
G01 X86.7266 Y41.5801 Z-13.6105
G01 X86.8355 Y41.5325 Z-13.6538
G01 X86.9410 Y41.4778 Z-13.6970
G01 X87.0427 Y41.4161 Z-13.7403
G01 X87.1400 Y41.3478 Z-13.7836
G01 X87.2324 Y41.2731 Z-13.8269
G01 X87.3197 Y41.1924 Z-13.8702
G01 X87.4014 Y41.1060 Z-13.9134
G01 X87.4772 Y41.0144 Z-13.9567
G01 X87.5466 Y40.9179 Z-14.0000
G01 X87.5708 Y40.8808 F3600
G01 X87.5940 Y40.8432
G01 X87.6163 Y40.8050
G01 X87.6376 Y40.7663
G01 X87.6906 Y40.6587
G01 X87.7361 Y40.5477
G01 X87.7741 Y40.4340
G01 X87.8043 Y40.3179
G01 X87.8266 Y40.2000
G01 X87.8410 Y40.0810
G01 X87.8472 Y39.9612
G01 X87.8454 Y39.8413
G01 X87.8355 Y39.7218
G01 X87.8175 Y39.6032
G01 X87.7916 Y39.4861
G01 X87.7578 Y39.3710
G01 X87.7164 Y39.2584
G01 X87.6674 Y39.1490
G01 X87.6112 Y39.0430
G01 X87.5480 Y38.9411
G01 X87.4780 Y38.8437
G01 X87.4017 Y38.7512
G01 X87.3192 Y38.6641
G01 X87.2311 Y38.5827
G01 X87.1377 Y38.5075
G01 X87.0394 Y38.4387
G01 X86.9368 Y38.3768
G01 X86.8301 Y38.3219
G01 X86.7201 Y38.2743
G01 X86.6070 Y38.2342
G01 X86.4915 Y38.2019
G01 X86.3741 Y38.1774
G01 X86.2553 Y38.1609
G01 X86.1357 Y38.1524
G01 X86.0157 Y38.1521
G01 X85.8961 Y38.1598
G01 X85.7772 Y38.1756
G01 X85.6596 Y38.1993
G01 X85.5439 Y38.2310
G01 X85.4306 Y38.2703
G01 X85.3203 Y38.3172
G01 X85.2133 Y38.3715
G01 X85.1102 Y38.4328
G01 X85.0115 Y38.5010
G01 X84.9177 Y38.5756
G01 X84.8291 Y38.6565
G01 X84.7461 Y38.7431
G01 X84.6692 Y38.8351
G01 X84.5986 Y38.9321
G01 X84.5348 Y39.0336
G01 X84.4779 Y39.1392
G01 X84.4283 Y39.2484
G01 X84.3865 Y39.3597
G01 X84.3522 Y39.4735
G01 X84.3257 Y39.5894
G01 X84.3069 Y39.7068
G01 X84.2960 Y39.8252
G01 X84.2931 Y39.9440
G01 X84.2981 Y40.0628
G01 X84.3110 Y40.1810
G01 X84.3319 Y40.2980
G01 X84.3605 Y40.4134
G01 X84.3967 Y40.5267
G01 X84.4404 Y40.6372
G01 X84.4915 Y40.7446
G01 X84.5496 Y40.8483
G01 X84.6145 Y40.9479
G01 X84.6859 Y41.0430
G01 X84.7635 Y41.1330
G01 X84.8469 Y41.2177
G01 X84.9359 Y41.2966
G01 X85.0299 Y41.3694
G01 X85.1285 Y41.4357
G01 X85.2314 Y41.4953
G01 X85.3380 Y41.5479
G01 X85.4479 Y41.5932
G01 X85.5606 Y41.6311
G01 X85.6756 Y41.6614
G01 X85.7923 Y41.6839
G01 X85.9103 Y41.6985
G01 X86.0290 Y41.7053
G01 X86.1479 Y41.7040
G01 X86.2664 Y41.6949
G01 X86.3841 Y41.6778
G01 X86.5003 Y41.6529
G01 X86.6147 Y41.6203
G01 X86.7266 Y41.5801
G01 X86.8355 Y41.5325
G01 X86.9410 Y41.4778
G01 X87.0427 Y41.4161
G01 X87.1400 Y41.3478
G01 X87.2324 Y41.2731
G01 X87.3197 Y41.1924
G01 X87.4014 Y41.1060
G01 X87.4772 Y41.0144
G01 X87.5466 Y40.9179
G00 Z5.0000

(Nr. 10 Ausschnitt bearbeiten: Ausschnitt 240)
G00 X78.3390 Y37.6233 Z5.0000
G00 Z0.5000
G01 Z0.0000 F1800
G01 X78.3761 Y37.4976 Z-0.0521
G01 X78.4049 Y37.3697 Z-0.1042
G01 X78.4252 Y37.2402 Z-0.1563
G01 X78.4371 Y37.1096 Z-0.2083
G01 X78.4403 Y36.9786 Z-0.2604
G01 X78.4350 Y36.8476 Z-0.3125
G01 X78.4212 Y36.7172 Z-0.3646
G01 X78.3988 Y36.5880 Z-0.4167
G01 X78.3680 Y36.4606 Z-0.4687
G01 X78.3290 Y36.3355 Z-0.5208
G01 X78.2819 Y36.2131 Z-0.5729
G01 X78.2268 Y36.0941 Z-0.6250
G01 X78.1641 Y35.9790 Z-0.6771
G01 X78.0940 Y35.8682 Z-0.7292
G01 X78.0168 Y35.7623 Z-0.7812
G01 X77.9329 Y35.6616 Z-0.8333
G01 X77.8425 Y35.5666 Z-0.8854
G01 X77.7462 Y35.4777 Z-0.9375
G01 X77.6442 Y35.3954 Z-0.9896
G01 X77.5370 Y35.3198 Z-1.0417
G01 X77.4252 Y35.2515 Z-1.0938
G01 X77.3091 Y35.1906 Z-1.1458
G01 X77.1892 Y35.1374 Z-1.1979
G01 X77.0662 Y35.0922 Z-1.2500
G01 X76.9404 Y35.0551 Z-1.3021
G01 X76.8125 Y35.0264 Z-1.3542
G01 X76.6830 Y35.0060 Z-1.4063
G01 X76.5525 Y34.9942 Z-1.4583
G01 X76.4214 Y34.9909 Z-1.5104
G01 X76.2904 Y34.9962 Z-1.5625
G01 X76.1601 Y35.0101 Z-1.6146
G01 X76.0309 Y35.0325 Z-1.6667
G01 X75.9035 Y35.0632 Z-1.7188
G01 X75.7783 Y35.1023 Z-1.7708
G01 X75.6560 Y35.1494 Z-1.8229
G01 X75.5370 Y35.2044 Z-1.8750
G01 X75.4219 Y35.2671 Z-1.9271
G01 X75.3111 Y35.3372 Z-1.9792
G01 X75.2051 Y35.4144 Z-2.0313
G01 X75.1045 Y35.4984 Z-2.0833
G01 X75.0095 Y35.5887 Z-2.1354
G01 X74.9206 Y35.6851 Z-2.1875
G01 X74.8382 Y35.7871 Z-2.2396
G01 X74.7627 Y35.8942 Z-2.2917
G01 X74.6944 Y36.0061 Z-2.3437
G01 X74.6335 Y36.1222 Z-2.3958
G01 X74.5803 Y36.2420 Z-2.4479
G01 X74.5351 Y36.3651 Z-2.5000
G01 X74.4980 Y36.4908 Z-2.5521
G01 X74.4692 Y36.6187 Z-2.6042
G01 X74.4489 Y36.7482 Z-2.6562
G01 X74.4371 Y36.8788 Z-2.7083
G01 X74.4338 Y37.0098 Z-2.7604
G01 X74.4391 Y37.1408 Z-2.8125
G01 X74.4530 Y37.2712 Z-2.8646
G01 X74.4753 Y37.4004 Z-2.9167
G01 X74.5061 Y37.5278 Z-2.9687
G01 X74.5451 Y37.6529 Z-3.0208
G01 X74.5923 Y37.7753 Z-3.0729
G01 X74.6473 Y37.8942 Z-3.1250
G01 X74.7100 Y38.0094 Z-3.1771
G01 X74.7801 Y38.1202 Z-3.2292
G01 X74.8573 Y38.2261 Z-3.2812
G01 X74.9412 Y38.3268 Z-3.3333
G01 X75.0316 Y38.4218 Z-3.3854
G01 X75.1280 Y38.5106 Z-3.4375
G01 X75.2300 Y38.5930 Z-3.4896
G01 X75.3371 Y38.6685 Z-3.5417
G01 X75.4490 Y38.7369 Z-3.5937
G01 X75.5651 Y38.7978 Z-3.6458
G01 X75.6849 Y38.8510 Z-3.6979
G01 X75.8079 Y38.8962 Z-3.7500
G01 X75.9337 Y38.9333 Z-3.8021
